!!!!SEGMENT: pl-cz--iii-446--005_maader-ludwik--requiem-in-es-benedictus.krn
!!!cenid: 17xx:974
!!!COM: Maader, Ludwik
!!!COM-rismid: pe30020328
!!!CDT: <1794->1798
!!!CNT:
!!!OPR: Requiem in Es
!!!OTL: Benedictus
!!!OMV: 005
!!!PDT:
!!!AGN: Sacred; Requiem
!!!SMS-siglum: PL-CZ
!!!SMS-shelfmark: III-446
!!!SMS-shelfwork: 001-005 M
!!!SMS-variant:
!!!SMS-altvar:
!!!NIFC-rismid: 300000767
!!!URL-scan: http://repozytorium.nifc.pl/skany/pl-cz-nut--iii-446
!!!ONB-nifc: UWAGA: części Requiem: Requiem, Dies irae, Domine Jesu Christe, Sanctus, Benedictus
!!!AIN: 1 alto 1 bass 2 clars 2 cor 1 organ 1 soprn 1 tenor 2 violn
!!!key: B-
**kern	**fba	**dynam	**kern	**dynam	**kern	**dynam	**kern	**kern	**kern	**kern	**text	**kern	**kern	**kern	**kern
*	*	*	*group4	*	*group4	*	*group3	*group3	*group3	*group3	*	*group2	*group2	*group1	*group1
*part11	*	*part11	*part10	*part10	*part9	*part9	*part8	*part7	*part6	*part5	*part5	*part4	*part3	*part2	*part1
*staff11	*	*	*staff10	*	*staff9	*	*staff8	*staff7	*staff6	*staff5	*staff5	*staff4	*staff3	*staff2	*staff1
*I"Organo	*	*	*I"Violino Secundo.	*	*I"Violino Primo.	*	*I"Baſso.	*I"Tenore	*I"Alto	*I"Canto	*	*I"Cornu Secundo in Dis.	*I"Cornu Primo in E♭.	*I"Clarinetto Secondo obligato.	*I"Clarinetto Primo Obligato
*I'org	*	*	*I'vl 2	*	*I'vl 1	*	*I'B	*I'T	*I'A	*I'S	*	*I'cor 2	*I'cor 1	*I'cl 2	*I'cl 1
*Iorgan	*	*	*Ivioln	*	*Ivioln	*	*Ibass	*Itenor	*Ialto	*Isoprn	*	*Icor	*Icor	*Iclars	*Iclars
*ICklav	*	*	*ICstr	*	*ICstr	*	*ICvox	*ICvox	*ICvox	*ICvox	*	*ICbras	*ICbras	*ICww	*ICww
*IGcont	*	*	*	*	*	*	*IGcoro	*IGcoro	*IGcoro	*IGcoro	*	*	*	*	*
*clefF4	*	*	*clefG2	*	*clefG2	*	*clefF4	*clefC4	*clefC3	*clefC1	*	*clefG2	*clefG2	*clefG2	*clefG2
*	*	*	*	*	*	*	*	*	*	*	*	*ITrd5c9	*ITrd5c9	*ITrd1c2	*ITrd1c2
*k[b-e-]	*	*	*k[b-e-]	*	*k[b-e-]	*	*k[b-e-]	*k[b-e-]	*k[b-e-]	*k[b-e-]	*	*k[b-e-a-]	*k[b-e-a-]	*k[b-e-]	*k[b-e-]
*B-:	*	*	*B-:	*	*B-:	*	*B-:	*B-:	*B-:	*B-:	*	*B-:	*B-:	*B-:	*B-:
*M2/4	*	*	*M2/4	*	*M2/4	*	*M2/4	*M2/4	*M2/4	*M2/4	*	*M2/4	*M2/4	*M2/4	*M2/4
=1	=1	=1	=1	=1	=1	=1	=1	=1	=1	=1	=1	=1	=1	=1	=1
*	*	*	*tremolo	*	*	*	*	*	*	*	*	*	*	*	*
!LO:TX:b:i:t=Benedictus	!	!	!LO:TX:a:t=Benedictus.	!	!LO:TX:b:i:t=Benedictus.	!	!	!	!	!LO:TX:t=P:problem=znaki [b- ee-]	!	!	!	!	!
!LO:TX:a:i:t=Andante	!	!	!LO:TX:a:t=Andante	!	!LO:TX:a:i:t=andante	!	!LO:TX:a:t=Benedictus Tacet, Agnus ut Re	!LO:TX:t=P:problem=część w żaden sposób nie oznaczona	!LO:TX:a:t=Benedictus Tacet\nAgnus ut Requiem\nDa Capo.	!LO:TX:a:i:t=andante Solo	!	!LO:TX:a:i:t=Benedictus Tacet\nAgnus ut Requiem da Cap	!LO:TX:a:i:t=Benedictus Tacet Agnus da Capo ut Requiem.	!LO:TX:a:t=Benedictus Tacet\nAgnus ut Requiem	!LO:TX:a:i:t=Benedictus Tacet\nAgnus ut Requiem da Capo.
8B-\L	3	.	8d/L	.	8.b-\L	.	2ryy	2ryy	2ryy	0r	.	2ryy	2ryy	2ryy	2ryy
8B-\	.	.	8d/	.	.	.	.	.	.	.	.	.	.	.	.
.	.	.	.	.	16dd\Jk	.	.	.	.	.	.	.	.	.	.
8B-\	.	.	8d/	.	16ff\LL	.	.	.	.	.	.	.	.	.	.
.	.	.	.	.	16dd\	.	.	.	.	.	.	.	.	.	.
8B-\J	.	.	8d/J	.	16cc\	.	.	.	.	.	.	.	.	.	.
.	.	.	.	.	16b-\JJ	.	.	.	.	.	.	.	.	.	.
*	*	*	*Xtremolo	*	*	*	*	*	*	*	*	*	*	*	*
=2	=2	=2	=2	=2	=2	=2	=2	=2	=2	=2	=2	=2	=2	=2	=2
8A\L	.	.	8f/L	.	8.cc\L	.	2ryy	2ryy	2ryy	.	.	2ryy	2ryy	2ryy	2ryy
8F\	7	.	16a/L	.	.	.	.	.	.	.	.	.	.	.	.
.	.	.	16cc/JJ	.	16ee-\Jk	.	.	.	.	.	.	.	.	.	.
!	!	!	!LO:TX:t=P:problem=mixed beam	!	!	!	!	!	!	!	!	!	!	!	!
8B-\	.	.	16b-\LL	.	16dd\LL	.	.	.	.	.	.	.	.	.	.
.	.	.	16dd\	.	16ff\	.	.	.	.	.	.	.	.	.	.
8D\J	.	.	16d/	.	16b-\	.	.	.	.	.	.	.	.	.	.
.	.	.	16f/JJ	.	16dd\JJ	.	.	.	.	.	.	.	.	.	.
=3	=3	=3	=3	=3	=3	=3	=3	=3	=3	=3	=3	=3	=3	=3	=3
!LO:TX:t=P:problem=mixed beam	!	!	!	!	!	!	!	!	!	!	!	!	!	!	!
8E-\L	.	.	16f/LL	.	16dd\LL	.	2ryy	2ryy	2ryy	.	.	2ryy	2ryy	2ryy	2ryy
.	.	.	16e-/	.	16cc\	.	.	.	.	.	.	.	.	.	.
8E-\	.	.	16g/	.	16ee-\	.	.	.	.	.	.	.	.	.	.
.	.	.	16e-/JJ	.	16cc\JJ	.	.	.	.	.	.	.	.	.	.
8F\	6 4	.	16e-/LL	.	16cc\LL	.	.	.	.	.	.	.	.	.	.
.	.	.	16d/	.	16b-\	.	.	.	.	.	.	.	.	.	.
8FF/J	5 3	.	16d/	.	16b-\	.	.	.	.	.	.	.	.	.	.
.	.	.	16c/JJ	.	16a\JJ	.	.	.	.	.	.	.	.	.	.
=4	=4	=4	=4	=4	=4	=4	=4	=4	=4	=4	=4	=4	=4	=4	=4
!LO:TX:t=P:problem=mixed beam	!	!	!	!	!LO:TX:t=P:problem=mixed beam	!	!	!	!	!	!	!	!	!	!
16BB-/LL	.	.	4d/	.	8b-\L	.	2ryy	2ryy	2ryy	.	.	2ryy	2ryy	2ryy	2ryy
16B-\	.	.	.	.	.	.	.	.	.	.	.	.	.	.	.
16F\	.	.	.	.	8B-/J	.	.	.	.	.	.	.	.	.	.
16D\JJ	.	.	.	.	.	.	.	.	.	.	.	.	.	.	.
8BB-/	.	.	16r	.	16r	.	.	.	.	.	.	.	.	.	.
.	.	.	16b-\LL	.	16dd\LL	.	.	.	.	.	.	.	.	.	.
8r	.	.	16cc\	.	16ee-\	.	.	.	.	.	.	.	.	.	.
.	.	.	16dd\JJ	.	16ff\JJ	.	.	.	.	.	.	.	.	.	.
=5	=5	=5	=5	=5	=5	=5	=5	=5	=5	=5	=5	=5	=5	=5	=5
8r	.	.	16dd\LL	.	16ff\LL	.	2ryy	2ryy	2ryy	0r	.	2ryy	2ryy	2ryy	2ryy
.	.	.	16cc\	.	16ee-\	.	.	.	.	.	.	.	.	.	.
8F\L	7	.	16b-\	.	16dd\	.	.	.	.	.	.	.	.	.	.
.	.	.	16a\JJ	.	16cc\JJ	.	.	.	.	.	.	.	.	.	.
8A\	.	.	8a\L	.	8cc\L	.	.	.	.	.	.	.	.	.	.
8F\J	.	.	8cc\J	.	8ee-\J	.	.	.	.	.	.	.	.	.	.
!	!	!	!	!	!LO:LB:g=original	!	!	!	!	!	!	!	!	!	!
=6	=6	=6	=6	=6	=6	=6	=6	=6	=6	=6	=6	=6	=6	=6	=6
8r	.	.	16b-\LL	.	16dd\LL	.	2ryy	2ryy	2ryy	.	.	2ryy	2ryy	2ryy	2ryy
.	.	.	16a\	.	16cc\	.	.	.	.	.	.	.	.	.	.
8BB-/L	8	.	16b-\	.	16dd\	.	.	.	.	.	.	.	.	.	.
.	.	.	16cc\JJ	.	16ee-\JJ	.	.	.	.	.	.	.	.	.	.
8D/	.	.	4dd\	.	8ff\L	.	.	.	.	.	.	.	.	.	.
8BB-/J	.	.	.	.	8bb-\J	.	.	.	.	.	.	.	.	.	.
=7	=7	=7	=7	=7	=7	=7	=7	=7	=7	=7	=7	=7	=7	=7	=7
4E-\	.	.	8.ee-\L	.	8.gg\L	.	2ryy	2ryy	2ryy	.	.	2ryy	2ryy	2ryy	2ryy
.	.	.	16dd\Jk	.	16ff\Jk	.	.	.	.	.	.	.	.	.	.
4E-\	.	.	16dd\LL	.	16ff\LL	.	.	.	.	.	.	.	.	.	.
.	.	.	16cc\	.	16ee-\	.	.	.	.	.	.	.	.	.	.
.	.	.	16cc\	.	16ee-\	.	.	.	.	.	.	.	.	.	.
.	.	.	16b-\JJ	.	16dd\JJ	.	.	.	.	.	.	.	.	.	.
!LO:LB:g=original	!	!	!	!	!	!	!	!	!	!	!	!	!	!	!
=8	=8	=8	=8	=8	=8	=8	=8	=8	=8	=8	=8	=8	=8	=8	=8
!LO:TX:t=P:problem=mixed beam	!	!	!	!	!	!	!	!	!	!	!	!	!	!	!
8F\L	.	.	8b-\L	.	8dd\L	.	2ryy	2ryy	2ryy	.	.	2ryy	2ryy	2ryy	2ryy
8FF/	.	.	8a\J	.	8cc\J	.	.	.	.	.	.	.	.	.	.
8AA/	6	.	16f/LL	.	8.ff\L	.	.	.	.	.	.	.	.	.	.
.	.	.	16f/	.	.	.	.	.	.	.	.	.	.	.	.
8AA/J	.	.	16f/	.	.	.	.	.	.	.	.	.	.	.	.
.	.	.	16f/JJ	.	16ee-\Jk	.	.	.	.	.	.	.	.	.	.
=9	=9	=9	=9	=9	=9	=9	=9	=9	=9	=9	=9	=9	=9	=9	=9
*	*	*	*tremolo	*	*	*	*	*	*	*	*	*	*	*	*
8BB-/L	.	.	16f/LL	.	(16ee-\LL	.	2ryy	2ryy	2ryy	0r	.	2ryy	2ryy	2ryy	2ryy
.	.	.	16f/	.	16dd\	.	.	.	.	.	.	.	.	.	.
8BB-/	.	.	16f/	.	16cc#X\	.	.	.	.	.	.	.	.	.	.
.	.	.	16f/	.	16dd\JJ)	.	.	.	.	.	.	.	.	.	.
8C/	6	.	16f/	.	(16dd\LL	.	.	.	.	.	.	.	.	.	.
.	.	.	16f/	.	16ccn\	.	.	.	.	.	.	.	.	.	.
8C/J	.	.	16f/	.	16bn\	.	.	.	.	.	.	.	.	.	.
.	.	.	16f/JJ	.	16cc\JJ)	.	.	.	.	.	.	.	.	.	.
=10	=10	=10	=10	=10	=10	=10	=10	=10	=10	=10	=10	=10	=10	=10	=10
!LO:TX:t=P:problem=mixed beam	!	!	!	!	!	!	!	!	!	!	!	!	!	!	!
8D\L	6	.	16f/LL	.	(16cc\LL	.	2ryy	2ryy	2ryy	.	.	2ryy	2ryy	2ryy	2ryy
.	.	.	16f/	.	16b-X\	.	.	.	.	.	.	.	.	.	.
8D\	.	.	16f/	.	16a\	.	.	.	.	.	.	.	.	.	.
.	.	.	16f/	.	16b-\JJ)	.	.	.	.	.	.	.	.	.	.
8AA/	6	.	16f/	.	8.ff\L	.	.	.	.	.	.	.	.	.	.
.	.	.	16f/	.	.	.	.	.	.	.	.	.	.	.	.
8AA/J	.	.	16f/	.	.	.	.	.	.	.	.	.	.	.	.
.	.	.	16f/JJ	.	16ee-X\Jk	.	.	.	.	.	.	.	.	.	.
=11	=11	=11	=11	=11	=11	=11	=11	=11	=11	=11	=11	=11	=11	=11	=11
8BB-/L	.	.	16f/LL	.	(16ee-\LL	.	2ryy	2ryy	2ryy	.	.	2ryy	2ryy	2ryy	2ryy
.	.	.	16f/	.	16dd\	.	.	.	.	.	.	.	.	.	.
8BB-/	.	.	16f/	.	16cc#X\	.	.	.	.	.	.	.	.	.	.
.	.	.	16f/	.	16dd\JJ)	.	.	.	.	.	.	.	.	.	.
8C/	6	.	16f/	.	(16dd\LL	.	.	.	.	.	.	.	.	.	.
.	.	.	16f/	.	16ccn\	.	.	.	.	.	.	.	.	.	.
8C/J	.	.	16f/	.	16bn\	.	.	.	.	.	.	.	.	.	.
.	.	.	16f/JJ	.	16cc\JJ)	.	.	.	.	.	.	.	.	.	.
=12	=12	=12	=12	=12	=12	=12	=12	=12	=12	=12	=12	=12	=12	=12	=12
*2\right	*	*	*	*	*	*	*	*	*	*	*	*	*	*	*
*tremolo	*	*	*	*	*	*	*	*	*	*	*	*	*	*	*
8D\L	6	.	16f/LL	.	(16cc\LL	.	2ryy	2ryy	2ryy	.	.	2ryy	2ryy	2ryy	2ryy
.	.	.	16f/	.	16b-X\	.	.	.	.	.	.	.	.	.	.
8D\	.	.	16f/	.	16a\	.	.	.	.	.	.	.	.	.	.
.	.	.	16f/JJ	.	16b-\JJ)	.	.	.	.	.	.	.	.	.	.
8D\	.	.	16b-\LL	.	(16bb-\LL	.	.	.	.	.	.	.	.	.	.
.	.	.	16b-\	.	16aa\	.	.	.	.	.	.	.	.	.	.
8D\J	.	.	16b-\	.	16gg\	.	.	.	.	.	.	.	.	.	.
.	.	.	16b-\JJ	.	16ff#X\JJ)	.	.	.	.	.	.	.	.	.	.
!	!	!	!	!	!LO:LB:g=original	!	!	!	!	!	!	!	!	!	!
=13	=13	=13	=13	=13	=13	=13	=13	=13	=13	=13	=13	=13	=13	=13	=13
*	*	*	*2\right	*	*	*	*	*	*	*	*	*	*	*	*
8E-\L	.	.	16b-\LL	.	8.gg\L	.	2ryy	2ryy	2ryy	0r	.	2ryy	2ryy	2ryy	2ryy
.	.	.	16b-\	.	.	.	.	.	.	.	.	.	.	.	.
8E-\	.	.	16b-\	.	.	.	.	.	.	.	.	.	.	.	.
.	.	.	16b-\	.	16gg\Jk	.	.	.	.	.	.	.	.	.	.
8E-\	.	.	16b-\	.	16bb-\LL	.	.	.	.	.	.	.	.	.	.
.	.	.	16b-\	.	16gg\	.	.	.	.	.	.	.	.	.	.
8E-\J	.	.	16b-\	.	16ffn\	.	.	.	.	.	.	.	.	.	.
.	.	.	16b-\JJ	.	16een\JJ	.	.	.	.	.	.	.	.	.	.
=14	=14	=14	=14	=14	=14	=14	=14	=14	=14	=14	=14	=14	=14	=14	=14
8D\L	6	.	16b-\LL	.	8.ff\L	.	2ryy	2ryy	2ryy	.	.	2ryy	2ryy	2ryy	2ryy
.	.	.	16b-\	.	.	.	.	.	.	.	.	.	.	.	.
8D\	.	.	16b-\	.	.	.	.	.	.	.	.	.	.	.	.
.	.	.	16b-\	.	16ff\Jk	.	.	.	.	.	.	.	.	.	.
8D\	.	.	16b-\	.	16bb-\LL	.	.	.	.	.	.	.	.	.	.
.	.	.	16b-\	.	16aa\	.	.	.	.	.	.	.	.	.	.
8D\J	.	.	16b-\	.	16gg\	.	.	.	.	.	.	.	.	.	.
.	.	.	16b-\JJ	.	16ff\JJ	.	.	.	.	.	.	.	.	.	.
*Xtremolo	*	*	*Xtremolo	*	*	*	*	*	*	*	*	*	*	*	*
=15	=15	=15	=15	=15	=15	=15	=15	=15	=15	=15	=15	=15	=15	=15	=15
4E-\	.	.	32ee-\LLL	.	32gg\LLL	.	2ryy	2ryy	2ryy	.	.	2ryy	2ryy	2ryy	2ryy
.	.	.	32ff\	.	32aa\	.	.	.	.	.	.	.	.	.	.
.	.	.	32gg\	.	32bb-\	.	.	.	.	.	.	.	.	.	.
.	.	.	32ff\JJJ	.	32aa\JJJ	.	.	.	.	.	.	.	.	.	.
.	.	.	32gg\LLL	.	32bb-\LLL	.	.	.	.	.	.	.	.	.	.
.	.	.	32ee-\	.	32gg\	.	.	.	.	.	.	.	.	.	.
.	.	.	32dd\	.	32ff\	.	.	.	.	.	.	.	.	.	.
.	.	.	32cc\JJJ	.	32ee-\JJJ	.	.	.	.	.	.	.	.	.	.
!LO:TX:t=P:problem=mixed beam	!	!	!	!	!	!	!	!	!	!	!	!	!	!	!
8F\L	6 4	.	8b-\L	.	8dd\L	.	.	.	.	.	.	.	.	.	.
8FF/J	5 3	.	8a\J	.	8cc\J	.	.	.	.	.	.	.	.	.	.
=16	=16	=16	=16	=16	=16	=16	=16	=16	=16	=16	=16	=16	=16	=16	=16
!LO:TX:t=P:problem=mixed beam	!	!	!	!	!	!	!	!	!	!	!	!	!	!	!
8BB-/L	.	.	8b-/L	.	8b-/L	.	2ryy	2ryy	2ryy	.	.	2ryy	2ryy	2ryy	2ryy
8F\J	.	.	8f/J	.	8f/J	.	.	.	.	.	.	.	.	.	.
4BB-/	.	.	4B-/	.	4B-/	.	.	.	.	.	.	.	.	.	.
!	!	!	!	!	!LO:LB:g=original	!	!	!	!	!	!	!	!	!	!
=17	=17	=17	=17	=17	=17	=17	=17	=17	=17	=17	=17	=17	=17	=17	=17
*tremolo	*	*	*tremolo	*	*	*below	*	*	*	*	*	*	*	*	*
!LO:TX:a:i:rj:t=Solo	!	!LO:DY:rj:t=po	!LO:TX:a:rj:i:t=Solo	!LO:DY:t=pia	!LO:TX:a:i:t=Solo	!LO:DY:t=piano.	!	!	!	!	!	!	!	!	!
8B-\L	.	p	8d/L	p	8.b-\L	p	2ryy	2ryy	2ryy	8.b-\L	Be-	2ryy	2ryy	2ryy	2ryy
8B-\	.	.	8d/	.	.	.	.	.	.	.	.	.	.	.	.
.	.	.	.	.	16dd\Jk	.	.	.	.	16dd\Jk	.	.	.	.	.
8B-\	.	.	8d/	.	16ff\LL	.	.	.	.	16ff\LL	.	.	.	.	.
.	.	.	.	.	16dd\	.	.	.	.	16dd\JJ	.	.	.	.	.
8B-\J	.	.	8d/J	.	16cc\	.	.	.	.	16cc\LL	-ne-	.	.	.	.
.	.	.	.	.	16b-\JJ	.	.	.	.	16b-\JJ	.	.	.	.	.
*Xtremolo	*	*	*Xtremolo	*	*	*	*	*	*	*	*	*	*	*	*
=18	=18	=18	=18	=18	=18	=18	=18	=18	=18	=18	=18	=18	=18	=18	=18
8A\L	.	.	8f/L	.	8.cc\L	.	2ryy	2ryy	2ryy	8.cc\L	-dic-	2ryy	2ryy	2ryy	2ryy
8F\	.	.	16a/L	.	.	.	.	.	.	.	.	.	.	.	.
.	.	.	16cc/JJ	.	16ee-\Jk	.	.	.	.	16ee-\Jk	.	.	.	.	.
!	!	!	!LO:TX:t=P:problem=mixed beam	!	!	!	!	!	!	!	!	!	!	!	!
8B-\	.	.	16b-\LL	.	16dd\LL	.	.	.	.	16dd\LL	-tus	.	.	.	.
.	.	.	16dd\	.	16ff\	.	.	.	.	16ff\JJ	.	.	.	.	.
8D\J	.	.	16d/	.	16b-\	.	.	.	.	16b-\LL	qui	.	.	.	.
.	.	.	16f/JJ	.	16dd\JJ	.	.	.	.	16dd\JJ	.	.	.	.	.
=19	=19	=19	=19	=19	=19	=19	=19	=19	=19	=19	=19	=19	=19	=19	=19
!LO:TX:t=P:problem=mixed beam	!	!	!	!	!	!	!	!	!	!	!	!	!	!	!
8E-\L	.	.	16f/LL	.	16dd\LL	.	2ryy	2ryy	2ryy	16dd\LL	ve-	2ryy	2ryy	2ryy	2ryy
.	.	.	16e-/	.	16cc\	.	.	.	.	16cc\	.	.	.	.	.
8E-\	.	.	16g/	.	16ee-\	.	.	.	.	16ee-\	.	.	.	.	.
.	.	.	16e-/JJ	.	16cc\JJ	.	.	.	.	16cc\JJ	.	.	.	.	.
!	!	!	!LO:LB:g=original	!	!	!	!	!	!	!	!	!	!	!	!
8F\	.	.	16e-/LL	.	16cc\LL	.	.	.	.	16cc\LL	.	.	.	.	.
.	.	.	16d/	.	16b-\	.	.	.	.	16b-\	.	.	.	.	.
8FF/J	.	.	16d/	.	16b-\	.	.	.	.	16b-\	.	.	.	.	.
.	.	.	16c/JJ	.	16a\JJ	.	.	.	.	16a\JJ	.	.	.	.	.
!LO:LB:g=original	!	!	!	!	!LO:LB:g=original	!	!	!	!	!LO:LB:g=original	!	!	!	!	!
=20	=20	=20	=20	=20	=20	=20	=20	=20	=20	=20	=20	=20	=20	=20	=20
!LO:TX:t=P:problem=mixed beam	!	!	!	!	!	!	!	!	!	!	!	!	!	!	!
16BB-/LL	.	.	16d/LL	.	16b-/LL	f	2ryy	2ryy	2ryy	4b-\	-nit	2ryy	2ryy	2ryy	2ryy
16B-\	.	.	16b-/	.	16b-/	.	.	.	.	.	.	.	.	.	.
16F\	.	.	16f/	.	16f/	.	.	.	.	.	.	.	.	.	.
16D\JJ	.	.	16d/JJ	.	16d/JJ	.	.	.	.	.	.	.	.	.	.
!	!	!	!LO:TX:t=P:problem=mixed beam	!	!	!	!	!	!	!	!	!	!	!	!
8BB-/	.	.	16B-/LL	.	16B-/LL	p	.	.	.	16r	.	.	.	.	.
.	.	.	16b-\	.	16dd\	.	.	.	.	16dd\LL	qui	.	.	.	.
8r	.	.	16cc\	.	16ee-\	.	.	.	.	16ee-\	.	.	.	.	.
.	.	.	16dd\JJ	.	16ff\JJ	.	.	.	.	16ff\JJ	.	.	.	.	.
=21	=21	=21	=21	=21	=21	=21	=21	=21	=21	=21	=21	=21	=21	=21	=21
8r	.	.	16dd\LL	.	16ff\LL	.	2ryy	2ryy	2ryy	16ff\LL	ve-	2ryy	2ryy	2ryy	2ryy
.	.	.	16cc\	.	16ee-\	.	.	.	.	16ee-\	.	.	.	.	.
8F\L	.	.	16b-\	.	16dd\	.	.	.	.	16dd\	.	.	.	.	.
.	.	.	16a\JJ	.	16cc\JJ	.	.	.	.	16cc\JJ	.	.	.	.	.
8A\	.	.	8a\L	.	8cc\L	.	.	.	.	8cc\	-nit	.	.	.	.
8F\J	.	.	8cc\J	.	8ee-\J	.	.	.	.	8ee-\	in	.	.	.	.
=22	=22	=22	=22	=22	=22	=22	=22	=22	=22	=22	=22	=22	=22	=22	=22
8r	.	.	16b-\LL	.	16dd\LL	.	2ryy	2ryy	2ryy	16dd\LL	no-	2ryy	2ryy	2ryy	2ryy
.	.	.	16a\	.	16cc\	.	.	.	.	16cc\	.	.	.	.	.
8BB-/L	.	.	16b-\	.	16dd\	.	.	.	.	16dd\	.	.	.	.	.
.	.	.	16cc\JJ	.	16ee-\JJ	.	.	.	.	16ee-\JJ	.	.	.	.	.
8D/	.	.	4dd\	.	8ff\L	.	.	.	.	8ff\L	.	.	.	.	.
8BB-/J	.	.	.	.	8bb-\J	.	.	.	.	8bb-\J	.	.	.	.	.
=23	=23	=23	=23	=23	=23	=23	=23	=23	=23	=23	=23	=23	=23	=23	=23
4E-\	.	.	8.ee-\L	.	8.gg\L	.	2ryy	2ryy	2ryy	8.gg\L	.	2ryy	2ryy	2ryy	2ryy
.	.	.	16dd\Jk	.	16ff\Jk	.	.	.	.	16ff\Jk	.	.	.	.	.
4E-\	.	.	16dd\LL	.	16ff\LL	.	.	.	.	16ff\LL	.	.	.	.	.
.	.	.	16cc\	.	16ee-\	.	.	.	.	16ee-\JJ	.	.	.	.	.
.	.	.	16cc\	.	16ee-\	.	.	.	.	16ee-\LL	-mi-	.	.	.	.
.	.	.	16b-\JJ	.	16dd\JJ	.	.	.	.	16dd\JJ	.	.	.	.	.
=24	=24	=24	=24	=24	=24	=24	=24	=24	=24	=24	=24	=24	=24	=24	=24
!LO:TX:t=P:problem=mixed beam	!	!	!	!	!	!	!	!	!	!	!	!	!	!	!
.	.	.	.	.	.	.	.	.	.	8qqdd/	.	.	.	.	.
8F\L	.	.	8b-\L	.	8dd\L	.	2ryy	2ryy	2ryy	4cc\	-ne	2ryy	2ryy	2ryy	2ryy
8FF/	.	.	8a\J	.	8cc\	.	.	.	.	.	.	.	.	.	.
8F\J	.	.	8a\	.	8cc\J	.	.	.	.	8r	.	.	.	.	.
8r	.	.	8r	.	8r	.	.	.	.	8cc\	in	.	.	.	.
=25	=25	=25	=25	=25	=25	=25	=25	=25	=25	=25	=25	=25	=25	=25	=25
8r	.	.	8r	.	8r	.	2ryy	2ryy	2ryy	8.cc\L	no-	2ryy	2ryy	2ryy	2ryy
8F\L	7	.	8a/L	.	8cc\L	.	.	.	.	.	.	.	.	.	.
.	.	.	.	.	.	.	.	.	.	16a\Jk	.	.	.	.	.
8F\	.	.	8a/	.	8cc\	.	.	.	.	16f\LL	-mi-	.	.	.	.
.	.	.	.	.	.	.	.	.	.	16a\JJ	.	.	.	.	.
8F\J	.	.	8a/J	.	8cc\J	.	.	.	.	16cc\LL	-ne	.	.	.	.
.	.	.	.	.	.	.	.	.	.	16ee-\JJ	.	.	.	.	.
!	!	!	!	!	!	!	!	!	!	!LO:LB:g=original	!	!	!	!	!
=26	=26	=26	=26	=26	=26	=26	=26	=26	=26	=26	=26	=26	=26	=26	=26
!LO:TX:t=P:problem=mixed beam	!	!	!	!	!	!	!	!	!	!	!	!	!	!	!
8B-\L	.	.	16f/LL	.	(16dd\LL	.	2ryy	2ryy	2ryy	16dd\LL	do-	2ryy	2ryy	2ryy	2ryy
.	.	.	16e-/	.	16cc\	.	.	.	.	16cc\JJ	.	.	.	.	.
8F\	.	.	16e-/	.	16cc\	.	.	.	.	16cc\LL	-mi-	.	.	.	.
.	.	.	16d/JJ	.	16b-\JJ)	.	.	.	.	16b-\JJ	.	.	.	.	.
8BB-/J	.	.	8d/	.	8b-\	.	.	.	.	8b-\	-ni	.	.	.	.
8r	.	.	8r	.	8r	.	.	.	.	8dd\	in	.	.	.	.
=27	=27	=27	=27	=27	=27	=27	=27	=27	=27	=27	=27	=27	=27	=27	=27
8r	.	.	8r	.	8r	.	2ryy	2ryy	2ryy	8.dd\L	no-	2ryy	2ryy	2ryy	2ryy
8G\L	7 n	.	8bn\L	.	8dd\L	.	.	.	.	.	.	.	.	.	.
.	.	.	.	.	.	.	.	.	.	16bn\Jk	.	.	.	.	.
8G\	.	.	8b\	.	8dd\	.	.	.	.	16g\LL	-mi-	.	.	.	.
.	.	.	.	.	.	.	.	.	.	16b\JJ	.	.	.	.	.
8G\J	.	.	8b\J	.	8dd\J	.	.	.	.	16dd\LL	-ne	.	.	.	.
.	.	.	.	.	.	.	.	.	.	16ff\JJ	.	.	.	.	.
=28	=28	=28	=28	=28	=28	=28	=28	=28	=28	=28	=28	=28	=28	=28	=28
!LO:TX:t=P:problem=mixed beam	!	!	!	!	!	!	!	!	!	!	!	!	!	!	!
8c\L	.	.	16g/LL	.	(16een\LL	.	2ryy	2ryy	2ryy	16een\LL	do-	2ryy	2ryy	2ryy	2ryy
.	.	.	16f/	.	16dd\	.	.	.	.	16dd\JJ	.	.	.	.	.
8G\	n	.	16f/	.	16dd\	.	.	.	.	16dd\LL	-mi-	.	.	.	.
.	.	.	16en/JJ	.	16cc\JJ)	.	.	.	.	16cc\JJ	.	.	.	.	.
8C/J	.	.	8e/	.	8cc\	.	.	.	.	8cc\	-ni	.	.	.	.
8r	.	.	8r	.	8r	.	.	.	.	16gg\LL	in	.	.	.	.
.	.	.	.	.	.	.	.	.	.	16ee\JJ	.	.	.	.	.
!	!	!	!LO:LB:g=original	!	!LO:LB:g=original	!	!	!	!	!	!	!	!	!	!
=29	=29	=29	=29	=29	=29	=29	=29	=29	=29	=29	=29	=29	=29	=29	=29
*	*	*	*	*	*2\right	*	*	*	*	*	*	*	*	*	*
2En\	.	.	2g/	.	2b-\	.	2ryy	2ryy	2ryy	8.cc\L	no-	2ryy	2ryy	2ryy	2ryy
.	.	.	.	.	.	.	.	.	.	16dd\Jk	.	.	.	.	.
.	.	.	.	.	.	.	.	.	.	16cc\LL	-mi-	.	.	.	.
.	.	.	.	.	.	.	.	.	.	16b-\JJ	.	.	.	.	.
.	.	.	.	.	.	.	.	.	.	16g\LL	-ne	.	.	.	.
.	.	.	.	.	.	.	.	.	.	16b-\JJ	.	.	.	.	.
=30	=30	=30	=30	=30	=30	=30	=30	=30	=30	=30	=30	=30	=30	=30	=30
8F\L	.	.	16g/LL	.	16b-\LL	.	2ryy	2ryy	2ryy	16b-\LL	do-	2ryy	2ryy	2ryy	2ryy
.	.	.	16f/	.	16a\	.	.	.	.	16a\JJ	.	.	.	.	.
8F\	.	.	16b-/	.	16dd\	.	.	.	.	16dd\LL	-mi-	.	.	.	.
.	.	.	16a/JJ	.	16cc\JJ	.	.	.	.	16cc\JJ	.	.	.	.	.
8F\J	.	.	8a/	.	8cc\	.	.	.	.	8cc\	-ni	.	.	.	.
8r	.	.	8r	.	8r	.	.	.	.	16gg\LL	in	.	.	.	.
.	.	.	.	.	.	.	.	.	.	16een\JJ	.	.	.	.	.
!LO:LB:g=original	!	!	!	!	!	!	!	!	!	!LO:LB:g=original	!	!	!	!	!
=31	=31	=31	=31	=31	=31	=31	=31	=31	=31	=31	=31	=31	=31	=31	=31
2En\	.	.	2g/	.	2b-\	.	2ryy	2ryy	2ryy	16cc\LL	no-	2ryy	2ryy	2ryy	2ryy
.	.	.	.	.	.	.	.	.	.	16bn\	.	.	.	.	.
.	.	.	.	.	.	.	.	.	.	16cc\	.	.	.	.	.
.	.	.	.	.	.	.	.	.	.	16dd\JJ	.	.	.	.	.
.	.	.	.	.	.	.	.	.	.	16cc\LL	-mi-	.	.	.	.
.	.	.	.	.	.	.	.	.	.	16b-X\JJ	.	.	.	.	.
.	.	.	.	.	.	.	.	.	.	16g\LL	-ne	.	.	.	.
.	.	.	.	.	.	.	.	.	.	16b-\JJ	.	.	.	.	.
=32	=32	=32	=32	=32	=32	=32	=32	=32	=32	=32	=32	=32	=32	=32	=32
8F\L	.	.	16g/LL	.	16b-\LL	.	2ryy	2ryy	2ryy	16b-\LL	do-	2ryy	2ryy	2ryy	2ryy
.	.	.	16f/	.	16a\	.	.	.	.	16a\JJ	.	.	.	.	.
8F\	.	.	16b-/	.	16dd\	.	.	.	.	16dd\LL	-mi-	.	.	.	.
.	.	.	16a/JJ	.	16cc\JJ	.	.	.	.	16cc\JJ	.	.	.	.	.
8F\	.	.	4a/	.	8cc\L	.	.	.	.	8cc\L	-ni	.	.	.	.
8A\J	.	.	.	.	8ff\J	.	.	.	.	8ff\J	in	.	.	.	.
=33	=33	=33	=33	=33	=33	=33	=33	=33	=33	=33	=33	=33	=33	=33	=33
4B-\	.	.	4r	.	16dd\LL	.	2ryy	2ryy	2ryy	16dd\LL	no-	2ryy	2ryy	2ryy	2ryy
.	.	.	.	.	32een\L	.	.	.	.	32een\L	.	.	.	.	.
.	.	.	.	.	32ff\JJJ	.	.	.	.	32ff\JJJ	.	.	.	.	.
.	.	.	.	.	32ee\LLL	.	.	.	.	32ee\LLL	-mi-	.	.	.	.
.	.	.	.	.	32dd\	.	.	.	.	32dd\JJJ	.	.	.	.	.
.	.	.	.	.	32cc\	.	.	.	.	32cc\LLL	-ne	.	.	.	.
.	.	.	.	.	32b-\JJJ	.	.	.	.	32b-\JJJ	.	.	.	.	.
!LO:TX:t=P:problem=mixed beam	!	!	!	!	!	!	!	!	!	!	!	!	!	!	!
8c\L	.	.	8f/L	.	8a/L	.	.	.	.	8a\	do-	.	.	.	.
8C/J	.	.	8en/J	.	8g/J	.	.	.	.	8g\	-mi-	.	.	.	.
=34	=34	=34	=34	=34	=34	=34	=34	=34	=34	=34	=34	=34	=34	=34	=34
!LO:TX:t=P:problem=mixed beam	!	!	!	!	!	!	!	!	!	!	!	!	!	!	!
16F\LL	.	.	16f/LL	f	16f/LL	f	2ryy	2ryy	2ryy	4f/	-ni	2ryy	2ryy	2ryy	2ryy
16FF/	.	.	16f/	.	16f/	.	.	.	.	.	.	.	.	.	.
16AA/	.	.	16A/	.	16A/	.	.	.	.	.	.	.	.	.	.
16C/JJ	.	.	16c/JJ	.	16c/JJ	.	.	.	.	.	.	.	.	.	.
8F\	.	.	8f/L	.	8f/	.	.	.	.	8r	.	.	.	.	.
!	!	!	!	!LO:DY:t=pia	!	!	!	!	!	!	!	!	!	!	!
8r	.	.	16en/L	p	16g/LL	p	.	.	.	16g\LL	in	.	.	.	.
.	.	.	16f/JJ	.	16a/JJ	.	.	.	.	16a\JJ	.	.	.	.	.
=35	=35	=35	=35	=35	=35	=35	=35	=35	=35	=35	=35	=35	=35	=35	=35
*tremolo	*	*	*	*	*	*	*	*	*	*	*	*	*	*	*
8C/L	.	.	8g/L	.	8b-\L	.	2ryy	2ryy	2ryy	8b-\	no-	2ryy	2ryy	2ryy	2ryy
8C/	.	.	8g/J	.	8b-\J	.	.	.	.	16b-\	-mi-	.	.	.	.
.	.	.	.	.	.	.	.	.	.	16b-\	-ne	.	.	.	.
!	!	!	!	!	!	!	!	!	!	!LO:LB:g=original	!	!	!	!	!
8C/	.	.	16g/LL	.	16b-\LL	.	.	.	.	16b-\LL	do-	.	.	.	.
.	.	.	16f/	.	16a\	.	.	.	.	16a\JJ	.	.	.	.	.
8C/J	.	.	16en/	.	16g\	.	.	.	.	16g\LL	-mi-	.	.	.	.
.	.	.	16f/JJ	.	16a\JJ	.	.	.	.	16a\JJ	.	.	.	.	.
*Xtremolo	*	*	*	*	*	*	*	*	*	*	*	*	*	*	*
=36	=36	=36	=36	=36	=36	=36	=36	=36	=36	=36	=36	=36	=36	=36	=36
8C/L	.	.	8en/L	.	8g/L	.	2ryy	2ryy	2ryy	4g\	-ni	2ryy	2ryy	2ryy	2ryy
!LO:TX:a:i:t=Violone	!	!	!	!	!	!	!	!	!	!	!	!	!	!	!
(32C/LL	.	f	(32c/LL	f	(32c/LL	f	.	.	.	.	.	.	.	.	.
32BBn/)	.	.	32Bn/)	.	32Bn/)	.	.	.	.	.	.	.	.	.	.
(32C/	.	.	(32c/	.	(32c/	.	.	.	.	.	.	.	.	.	.
32BB/JJJ)	.	.	32B/JJJ)	.	32B/JJJ)	.	.	.	.	.	.	.	.	.	.
8C/	.	.	8c/L	.	8c/L	.	.	.	.	8r	.	.	.	.	.
*	*	*	*	*	*	*	*	*	*	*	*ij	*	*	*	*
!	!	!	!	!LO:DY:t=po	!	!LO:DY:t=pia	!	!	!	!	!	!	!	!	!
8r	.	.	16f/L	p	16a/L	p	.	.	.	16a\LL	in	.	.	.	.
.	.	.	16g/JJ	.	16b-/JJ	.	.	.	.	16b-\JJ	.	.	.	.	.
!	!	!	!	!	!LO:LB:g=original	!	!	!	!	!	!	!	!	!	!
=37	=37	=37	=37	=37	=37	=37	=37	=37	=37	=37	=37	=37	=37	=37	=37
*tremolo	*	*	*	*	*	*	*	*	*	*	*	*	*	*	*
!LO:TX:a:i:t=Org&colon;	!	!LO:DY:t=pia	!	!	!	!	!	!	!	!	!	!	!	!	!
8F\L	.	p	8a/L	.	8cc\L	.	2ryy	2ryy	2ryy	8cc\	no-	2ryy	2ryy	2ryy	2ryy
8F\	.	.	8a/J	.	8cc\J	.	.	.	.	16cc\	-mi-	.	.	.	.
.	.	.	.	.	.	.	.	.	.	16cc\	-ne	.	.	.	.
8F\	.	.	16a/LL	.	16cc\LL	.	.	.	.	16cc\LL	do-	.	.	.	.
.	.	.	16g/	.	16b-\	.	.	.	.	16b-\JJ	.	.	.	.	.
8F\J	.	.	16f/	.	16a\	.	.	.	.	16a\LL	-mi-	.	.	.	.
.	.	.	16g/JJ	.	16b-\JJ	.	.	.	.	16b-\JJ	.	.	.	.	.
*Xtremolo	*	*	*	*	*	*	*	*	*	*	*	*	*	*	*
=38	=38	=38	=38	=38	=38	=38	=38	=38	=38	=38	=38	=38	=38	=38	=38
8F\L	.	.	8f/L	.	8a/L	.	2ryy	2ryy	2ryy	4a\	-ni	2ryy	2ryy	2ryy	2ryy
*	*	*	*	*	*	*	*	*	*	*	*Xij	*	*	*	*
!	!	!	!	!	!	!LO:DY:t=for .	!	!	!	!	!	!	!	!	!
(32F\LL	.	f	(32f/LL	f	(32f/LL	f	.	.	.	.	.	.	.	.	.
32En\)	.	.	32en/)	.	32en/)	.	.	.	.	.	.	.	.	.	.
(32F\	.	.	(32f/	.	(32f/	.	.	.	.	.	.	.	.	.	.
32E\JJJ)	.	.	32e/JJJ)	.	32e/JJJ)	.	.	.	.	.	.	.	.	.	.
!	!	!LO:DY:t=po	!	!	!LO:TX:t=P:problem=mixed beam	!	!	!	!	!	!	!	!	!	!
8F\L	.	p	8f/L	.	8f/L	.	.	.	.	8r	.	.	.	.	.
!	!	!	!	!LO:DY:t=po	!	!LO:DY:t=pia &colon;	!	!	!	!	!	!	!	!	!
8F\J	.	.	8a/J	p	8cc\J	p	.	.	.	8cc\	in	.	.	.	.
=39	=39	=39	=39	=39	=39	=39	=39	=39	=39	=39	=39	=39	=39	=39	=39
*tremolo	*	*	*tremolo	*	*tremolo	*	*	*	*	*	*	*	*	*	*
8B-\L	3	.	8f/L	.	8dd\L	.	2ryy	2ryy	2ryy	16dd\LL	no-	2ryy	2ryy	2ryy	2ryy
.	.	.	.	.	.	.	.	.	.	16b-\JJ	.	.	.	.	.
8B-\	.	.	8f/	.	8dd\	.	.	.	.	32cc\LLL	.	.	.	.	.
.	.	.	.	.	.	.	.	.	.	32b-\	.	.	.	.	.
.	.	.	.	.	.	.	.	.	.	32a\	.	.	.	.	.
.	.	.	.	.	.	.	.	.	.	32b-\JJJ	.	.	.	.	.
8B-\	.	.	8f/	.	8dd\	.	.	.	.	8f\L	.	.	.	.	.
8B-\J	.	.	8f/J	.	8dd\J	.	.	.	.	8dd\J	.	.	.	.	.
=40	=40	=40	=40	=40	=40	=40	=40	=40	=40	=40	=40	=40	=40	=40	=40
8A\L	6	.	8f/L	.	8cc\L	.	2ryy	2ryy	2ryy	16cc\LL	.	2ryy	2ryy	2ryy	2ryy
.	.	.	.	.	.	.	.	.	.	16a\JJ	.	.	.	.	.
8A\	.	.	8f/	.	8cc\	.	.	.	.	32b-\LLL	.	.	.	.	.
.	.	.	.	.	.	.	.	.	.	32a\	.	.	.	.	.
.	.	.	.	.	.	.	.	.	.	32g\	.	.	.	.	.
.	.	.	.	.	.	.	.	.	.	32a\JJJ	.	.	.	.	.
8A\	.	.	8f/	.	8cc\	.	.	.	.	8f\L	.	.	.	.	.
8A\J	.	.	8f/J	.	8cc\J	.	.	.	.	8cc\J	.	.	.	.	.
*Xtremolo	*	*	*Xtremolo	*	*Xtremolo	*	*	*	*	*	*	*	*	*	*
!LO:LB:g=original	!	!	!	!	!	!	!	!	!	!LO:LB:g=original	!	!	!	!	!
=41	=41	=41	=41	=41	=41	=41	=41	=41	=41	=41	=41	=41	=41	=41	=41
4B-\	.	.	8f/L	.	16dd\LL	.	2ryy	2ryy	2ryy	16dd\LL	.	2ryy	2ryy	2ryy	2ryy
.	.	.	.	.	16ff\	.	.	.	.	16ff\JJ	.	.	.	.	.
.	.	.	8g/	.	16dd\	.	.	.	.	16dd\	-mi-	.	.	.	.
.	.	.	.	.	16b-\JJ	.	.	.	.	16b-\	-ne	.	.	.	.
!LO:TX:t=P:problem=mixed beam	!	!	!	!	!	!	!	!	!	!	!	!	!	!	!
8c\L	6 4	.	8f/	.	8a/L	.	.	.	.	8a\	do-	.	.	.	.
8C/J	5 3	.	8en/J	.	8g/J	.	.	.	.	8g\	-mi-	.	.	.	.
=42	=42	=42	=42	=42	=42	=42	=42	=42	=42	=42	=42	=42	=42	=42	=42
16F\LL|>	.	f	16f/LL	f	16f/LL	f	2ryy	2ryy	2ryy	4f/	-ni	2ryy	2ryy	2ryy	2ryy
16FF/|>	.	.	16f/	.	16f/	.	.	.	.	.	.	.	.	.	.
16AA/|>	.	.	16A/	.	16A/	.	.	.	.	.	.	.	.	.	.
16C/JJ|>	.	.	16c/JJ	.	16c/JJ	.	.	.	.	.	.	.	.	.	.
8F\	.	.	8f/L	.	8f/L	.	.	.	.	8r	.	.	.	.	.
!	!	!	!	!LO:DY:t=po	!	!LO:DY:t=pia	!	!	!	!	!	!	!	!	!
8r	.	.	16en/L	p	16g/L	p	.	.	.	16g\LL	in	.	.	.	.
.	.	.	16f/JJ	.	16a/JJ	.	.	.	.	16a\JJ	.	.	.	.	.
=43	=43	=43	=43	=43	=43	=43	=43	=43	=43	=43	=43	=43	=43	=43	=43
*tremolo	*	*	*	*	*	*	*	*	*	*	*	*	*	*	*
!	!	!LO:DY:t=po	!	!	!	!	!	!	!	!	!	!	!	!	!
8C/L	.	p	8g/L	.	8b-/L	.	2ryy	2ryy	2ryy	8b-\	no-	2ryy	2ryy	2ryy	2ryy
8C/	.	.	8g/J	.	8b-/J	.	.	.	.	16b-\	-mi-	.	.	.	.
.	.	.	.	.	.	.	.	.	.	16b-\	-ne	.	.	.	.
8C/	.	.	16g/LL	.	16b-/LL	.	.	.	.	16b-\LL	do-	.	.	.	.
.	.	.	16f/	.	16a/	.	.	.	.	16a\JJ	.	.	.	.	.
8C/J	.	.	16en/	.	16g/	.	.	.	.	16g\LL	-mi-	.	.	.	.
.	.	.	16f/JJ	.	16a/JJ	.	.	.	.	16a\JJ	.	.	.	.	.
*Xtremolo	*	*	*	*	*	*	*	*	*	*	*	*	*	*	*
=44	=44	=44	=44	=44	=44	=44	=44	=44	=44	=44	=44	=44	=44	=44	=44
8C/L	.	.	8en/L	.	8g/L	.	2ryy	2ryy	2ryy	4g\	-ni	2ryy	2ryy	2ryy	2ryy
32C/LL	.	f	(32c/LL	f	(32c/LL	f	.	.	.	.	.	.	.	.	.
32BBn/	.	.	32Bn/)	.	32Bn/)	.	.	.	.	.	.	.	.	.	.
32C/	.	.	(32c/	.	(32c/	.	.	.	.	.	.	.	.	.	.
32BB/JJJ	.	.	32B/JJJ)	.	32B/JJJ)	.	.	.	.	.	.	.	.	.	.
8C/	.	.	8c/L	.	8c/L	.	.	.	.	8r	.	.	.	.	.
!	!	!	!	!LO:DY:t=po	!	!LO:DY:t=pia	!	!	!	!	!	!	!	!	!
8r	.	.	16f/L	p	16a/L	p	.	.	.	16a\LL	in	.	.	.	.
.	.	.	16g/JJ	.	16b-/JJ	.	.	.	.	16b-\JJ	.	.	.	.	.
!	!	!	!	!	!LO:LB:g=original	!	!	!	!	!	!	!	!	!	!
=45	=45	=45	=45	=45	=45	=45	=45	=45	=45	=45	=45	=45	=45	=45	=45
*tremolo	*	*	*	*	*	*	*	*	*	*	*	*	*	*	*
!	!	!LO:DY:t=pi	!	!	!	!	!	!	!	!	!	!	!	!	!
8F\L	.	p	8a/L	.	8cc\L	.	2ryy	2ryy	2ryy	8cc\	no-	2ryy	2ryy	2ryy	2ryy
8F\	.	.	8a/J	.	8cc\J	.	.	.	.	16cc\	-mi-	.	.	.	.
.	.	.	.	.	.	.	.	.	.	16cc\	-ne	.	.	.	.
8F\	.	.	16a/LL	.	16cc\LL	.	.	.	.	16cc\LL	do-	.	.	.	.
.	.	.	16g/	.	16b-\	.	.	.	.	16b-\JJ	.	.	.	.	.
8F\J	.	.	16f/	.	16a\	.	.	.	.	16a\LL	-mi-	.	.	.	.
.	.	.	16g/JJ	.	16b-\JJ	.	.	.	.	16b-\JJ	.	.	.	.	.
*Xtremolo	*	*	*	*	*	*	*	*	*	*	*	*	*	*	*
!	!	!	!LO:LB:g=original	!	!	!	!	!	!	!LO:LB:g=original	!	!	!	!	!
=46	=46	=46	=46	=46	=46	=46	=46	=46	=46	=46	=46	=46	=46	=46	=46
8F\L	.	.	8f/L	.	8b-/L	.	2ryy	2ryy	2ryy	4a\	-ni	2ryy	2ryy	2ryy	2ryy
32F\LL	.	f	(32f/LL	f	(32f/LL	f	.	.	.	.	.	.	.	.	.
32En\	.	.	32en/)	.	32en/)	.	.	.	.	.	.	.	.	.	.
32F\	.	.	(32f/	.	(32f/	.	.	.	.	.	.	.	.	.	.
32E\JJJ	.	.	32e/JJJ)	.	32e/JJJ)	.	.	.	.	.	.	.	.	.	.
!	!	!LO:DY:t=po	!	!	!LO:TX:t=P:problem=mixed beam	!	!	!	!	!	!	!	!	!	!
8F\L	.	p	8f/L	.	8f/L	p	.	.	.	8r	.	.	.	.	.
!	!	!	!	!LO:DY:t=po	!	!	!	!	!	!	!	!	!	!	!
8F\J	.	.	8a/J	p	8cc\J	.	.	.	.	8cc\	in	.	.	.	.
=47	=47	=47	=47	=47	=47	=47	=47	=47	=47	=47	=47	=47	=47	=47	=47
*tremolo	*	*	*tremolo	*	*tremolo	*	*	*	*	*	*	*	*	*	*
8B-\L	.	.	8f/L	.	8dd\L	.	2ryy	2ryy	2ryy	16dd\LL	no-	2ryy	2ryy	2ryy	2ryy
.	.	.	.	.	.	.	.	.	.	16b-\JJ	.	.	.	.	.
8B-\	.	.	8f/	.	8dd\	.	.	.	.	32cc\LLL	.	.	.	.	.
.	.	.	.	.	.	.	.	.	.	32b-\	.	.	.	.	.
.	.	.	.	.	.	.	.	.	.	32a\	.	.	.	.	.
.	.	.	.	.	.	.	.	.	.	32b-\JJJ	.	.	.	.	.
8B-\	.	.	8f/	.	8dd\	.	.	.	.	8f\L	.	.	.	.	.
8B-\J	.	.	8f/J	.	8dd\J	.	.	.	.	8dd\J	.	.	.	.	.
=48	=48	=48	=48	=48	=48	=48	=48	=48	=48	=48	=48	=48	=48	=48	=48
8A\L	.	.	8f/L	.	8cc\L	.	2ryy	2ryy	2ryy	16cc\LL	.	2ryy	2ryy	2ryy	2ryy
.	.	.	.	.	.	.	.	.	.	16a\JJ	.	.	.	.	.
8A\	.	.	8f/	.	8cc\	.	.	.	.	32b-\LLL	.	.	.	.	.
.	.	.	.	.	.	.	.	.	.	32a\	.	.	.	.	.
.	.	.	.	.	.	.	.	.	.	32g\	.	.	.	.	.
.	.	.	.	.	.	.	.	.	.	32a\JJJ	.	.	.	.	.
!	!	!	!	!	!	!	!	!	!	!LO:TX:t=P:problem=miejsce nieczytelne - uszkodzone źrodlo	!	!	!	!	!
8A\	.	.	8f/	.	8cc\	.	.	.	.	8ryy	.	.	.	.	.
8A\J	.	.	8f/J	.	8cc\J	.	.	.	.	8cc\	.	.	.	.	.
*Xtremolo	*	*	*Xtremolo	*	*Xtremolo	*	*	*	*	*	*	*	*	*	*
=49	=49	=49	=49	=49	=49	=49	=49	=49	=49	=49	=49	=49	=49	=49	=49
4B-\	.	.	8f/L	.	16dd\LL	.	2ryy	2ryy	2ryy	16dd\LL	.	2ryy	2ryy	2ryy	2ryy
.	.	.	.	.	16ff\	.	.	.	.	16ff\JJ	.	.	.	.	.
.	.	.	8g/	.	16dd\	.	.	.	.	16dd\	-mi-	.	.	.	.
.	.	.	.	.	16b-\JJ	.	.	.	.	16b-\	-ne	.	.	.	.
!LO:TX:t=P:problem=mixed beam	!	!	!	!	!	!	!	!	!	!	!	!	!	!	!
8c\L	.	.	8f/	.	8a/L	.	.	.	.	8a\	do-	.	.	.	.
8C/J	.	.	8en/J	.	8g/J	.	.	.	.	8g\	-mi-	.	.	.	.
=50	=50	=50	=50	=50	=50	=50	=50	=50	=50	=50	=50	=50	=50	=50	=50
!	!	!	!LO:TX:t=P:problem=mixed beam	!	!LO:TX:t=P:problem=mixed beam	!	!	!	!	!	!	!	!	!	!
8F\	.	.	16f/LL	.	16f/LL	.	2ryy	2ryy	2ryy	16f/	-ni	2ryy	2ryy	2ryy	2ryy
.	.	.	16dd\	.	16ff\	.	.	.	.	16ff\	in	.	.	.	.
8r	.	.	16cc\	.	16een\	.	.	.	.	16een\LL	no-	.	.	.	.
.	.	.	16b-\JJ	.	16dd\JJ	.	.	.	.	16dd\JJ	.	.	.	.	.
4r	.	.	16a/LL	.	16cc\LL	.	.	.	.	16cc\LL	.	.	.	.	.
.	.	.	16b-/	.	16dd\	.	.	.	.	16dd\	.	.	.	.	.
.	.	.	16a/	.	16cc\	.	.	.	.	16cc\	.	.	.	.	.
.	.	.	16g/JJ	.	16b-\JJ	.	.	.	.	16b-\JJ	.	.	.	.	.
!LO:LB:g=original	!	!	!	!	!	!	!	!	!	!LO:LB:g=original	!	!	!	!	!
=51	=51	=51	=51	=51	=51	=51	=51	=51	=51	=51	=51	=51	=51	=51	=51
!LO:TX:t=P:problem=mixed beam	!	!	!	!	!	!	!	!	!	!	!	!	!	!	!
8F\L	.	.	8f/L	.	16a\LL	.	2ryy	2ryy	2ryy	16a\LL	.	2ryy	2ryy	2ryy	2ryy
.	.	.	.	.	16cc\JJ	.	.	.	.	16cc\JJ	.	.	.	.	.
8B-\	.	.	16d/L	.	32cc\LLL	.	.	.	.	32cc\LLL	-mi-	.	.	.	.
.	.	.	.	.	32b-\	.	.	.	.	32b-\JJJ	.	.	.	.	.
.	.	.	16B-/JJ	.	32a\	.	.	.	.	32a\LLL	-ne	.	.	.	.
.	.	.	.	.	32g\JJJ	.	.	.	.	32g\JJJ	.	.	.	.	.
8c\	6 4	.	16B-/LL	.	16g/LL	.	.	.	.	16g/LL	do-	.	.	.	.
.	.	.	16A/	.	16f/	.	.	.	.	16f/JJ	.	.	.	.	.
8C/J	5 n	.	16A/	.	16f/	.	.	.	.	16f/LL	-mi-	.	.	.	.
.	.	.	16G/JJ	.	16en/JJ	.	.	.	.	16en/JJ	.	.	.	.	.
=52	=52	=52	=52	=52	=52	=52	=52	=52	=52	=52	=52	=52	=52	=52	=52
!	!	!	!	!	!LO:TX:t=P:problem=mixed beam	!	!	!	!	!	!	!	!	!	!
!LO:TX:a:i:t=T.	!	!	!	!	!LO:TX:a:i:t=Tutti	!	!	!	!	!	!	!	!	!	!
4F\	.	f	8A/	.	8f/L	f	2ryy	2ryy	2ryy	4f/	-ni.	2ryy	2ryy	2ryy	2ryy
.	.	.	8r	.	(16cc\L	.	.	.	.	.	.	.	.	.	.
.	.	.	.	.	16a\JJ)	.	.	.	.	.	.	.	.	.	.
!	!	!	!LO:TX:a:i:t=T&colon;	!	!	!	!	!	!	!	!	!	!	!	!
8r	.	.	4r	.	16f/LL|	.	.	.	.	4r	.	.	.	.	.
.	.	.	.	.	16f/|	.	.	.	.	.	.	.	.	.	.
8A\|	.	.	.	.	16f/|	.	.	.	.	.	.	.	.	.	.
.	.	.	.	.	16f/JJ|	.	.	.	.	.	.	.	.	.	.
!	!	!	!	!	!LO:LB:g=original	!	!	!	!	!	!	!	!	!	!
=53	=53	=53	=53	=53	=53	=53	=53	=53	=53	=53	=53	=53	=53	=53	=53
*	*	*	*tremolo	*	*	*	*	*	*	*	*	*	*	*	*
!	!	!	!	!LO:DY:rj	!	!	!	!	!	!	!	!	!	!	!
8G\L|	.	.	16c/LL	f	16f/LL	.	2ryy	2ryy	2ryy	0r	.	2ryy	2ryy	2ryy	2ryy
.	.	.	16c/	.	16en/	.	.	.	.	.	.	.	.	.	.
8En\|	.	.	16c/	.	16d/	.	.	.	.	.	.	.	.	.	.
.	.	.	16c/	.	16c/JJ	.	.	.	.	.	.	.	.	.	.
8C\|	.	.	16c/	.	16cc\LL	.	.	.	.	.	.	.	.	.	.
.	.	.	16c/	.	16b-\	.	.	.	.	.	.	.	.	.	.
8E\J|	.	.	16c/	.	16a\	.	.	.	.	.	.	.	.	.	.
.	.	.	16c/JJ	.	16g\JJ	.	.	.	.	.	.	.	.	.	.
=54	=54	=54	=54	=54	=54	=54	=54	=54	=54	=54	=54	=54	=54	=54	=54
8F\	.	.	8c/	.	8a\L	.	2ryy	2ryy	2ryy	.	.	2ryy	2ryy	2ryy	2ryy
8r	.	.	8r	.	(16cc\L	.	.	.	.	.	.	.	.	.	.
.	.	.	.	.	16a\JJ)	.	.	.	.	.	.	.	.	.	.
8r	.	.	4r	.	16f/LL|	.	.	.	.	.	.	.	.	.	.
.	.	.	.	.	16f/|	.	.	.	.	.	.	.	.	.	.
8A\	.	.	.	.	16f/|	.	.	.	.	.	.	.	.	.	.
.	.	.	.	.	16f/JJ|	.	.	.	.	.	.	.	.	.	.
=55	=55	=55	=55	=55	=55	=55	=55	=55	=55	=55	=55	=55	=55	=55	=55
8G\L	.	.	16c/LL	.	(16f/LL	.	2ryy	2ryy	2ryy	.	.	2ryy	2ryy	2ryy	2ryy
.	.	.	16c/	.	16en/	.	.	.	.	.	.	.	.	.	.
8En\	.	.	16c/	.	16d/	.	.	.	.	.	.	.	.	.	.
.	.	.	16c/	.	16c/JJ)	.	.	.	.	.	.	.	.	.	.
8C\	.	.	16c/	.	(16cc\LL	.	.	.	.	.	.	.	.	.	.
.	.	.	16c/	.	16b-\	.	.	.	.	.	.	.	.	.	.
8E\J	.	.	16c/	.	16a\	.	.	.	.	.	.	.	.	.	.
.	.	.	16c/JJ	.	16g\JJ)	.	.	.	.	.	.	.	.	.	.
*	*	*	*Xtremolo	*	*	*	*	*	*	*	*	*	*	*	*
=56	=56	=56	=56	=56	=56	=56	=56	=56	=56	=56	=56	=56	=56	=56	=56
8F\	.	.	(16f/LL	.	(16a\LL	.	2ryy	2ryy	2ryy	.	.	2ryy	2ryy	2ryy	2ryy
.	.	.	16g/)	.	16b-\)	.	.	.	.	.	.	.	.	.	.
8r	.	.	(16g/	.	(16b-\	.	.	.	.	.	.	.	.	.	.
.	.	.	16a/JJ)	.	16cc\JJ)	.	.	.	.	.	.	.	.	.	.
4r	.	.	(16a/LL	.	(16cc\LL	.	.	.	.	.	.	.	.	.	.
.	.	.	16b-/)	.	16dd\)	.	.	.	.	.	.	.	.	.	.
.	.	.	(16b-/	.	(16dd\	.	.	.	.	.	.	.	.	.	.
.	.	.	16g/JJ)	.	16een\JJ)	.	.	.	.	.	.	.	.	.	.
!	!	!	!LO:LB:g=original	!	!	!	!	!	!	!	!	!	!	!	!
=57	=57	=57	=57	=57	=57	=57	=57	=57	=57	=57	=57	=57	=57	=57	=57
8r	.	.	8a/L	.	(16ff\LL	.	2ryy	2ryy	2ryy	0r	.	2ryy	2ryy	2ryy	2ryy
.	.	.	.	.	16cc\)	.	.	.	.	.	.	.	.	.	.
8A\L	6	.	8f/	.	16cc\|	.	.	.	.	.	.	.	.	.	.
.	.	.	.	.	16cc\JJ|	.	.	.	.	.	.	.	.	.	.
8A\	.	.	8f/	.	8cc\L	.	.	.	.	.	.	.	.	.	.
8A\J	.	.	8f/J	.	8ee-X\J	.	.	.	.	.	.	.	.	.	.
=58	=58	=58	=58	=58	=58	=58	=58	=58	=58	=58	=58	=58	=58	=58	=58
8r	.	.	8f/L	.	(16cc#X\LL	.	2ryy	2ryy	2ryy	.	.	2ryy	2ryy	2ryy	2ryy
.	.	.	.	.	16dd\)	.	.	.	.	.	.	.	.	.	.
8B-\L	.	.	8f/	.	16dd\|	.	.	.	.	.	.	.	.	.	.
.	.	.	.	.	16dd\JJ|	.	.	.	.	.	.	.	.	.	.
!	!	!	!	!	!LO:TX:b:i:t=V.S.	!	!	!	!	!	!	!	!	!	!
8B-\	.	.	8f/	.	4dd\	.	.	.	.	.	.	.	.	.	.
8B-\J	.	.	8f/J	.	.	.	.	.	.	.	.	.	.	.	.
!	!	!	!	!	!LO:PB:g=original	!	!	!	!	!	!	!	!	!	!
=59	=59	=59	=59	=59	=59	=59	=59	=59	=59	=59	=59	=59	=59	=59	=59
*	*	*	*tremolo	*	*	*	*	*	*	*	*	*	*	*	*
8A\L	6_ 3	.	8f/L	.	(16ccn\LL	.	2ryy	2ryy	2ryy	.	.	2ryy	2ryy	2ryy	2ryy
.	.	.	.	.	16ff\)	.	.	.	.	.	.	.	.	.	.
8B-\	_ 3	.	8f/	.	(16dd\	.	.	.	.	.	.	.	.	.	.
.	.	.	.	.	16ff\JJ)	.	.	.	.	.	.	.	.	.	.
8A\	_ 3	.	8f/	.	(16cc\LL	.	.	.	.	.	.	.	.	.	.
.	.	.	.	.	16ff\)	.	.	.	.	.	.	.	.	.	.
8B-\J	_ 3	.	8f/J	.	(16dd\	.	.	.	.	.	.	.	.	.	.
.	.	.	.	.	16ff\JJ)	.	.	.	.	.	.	.	.	.	.
*	*	*	*Xtremolo	*	*	*	*	*	*	*	*	*	*	*	*
=60	=60	=60	=60	=60	=60	=60	=60	=60	=60	=60	=60	=60	=60	=60	=60
!	!	!	!LO:TX:t=P:problem=mixed beam	!	!	!	!	!	!	!	!	!	!	!	!
!LO:TX:t=P:problem=mixed beam	!	!	!LO:TX:t=P:global:problem=klamra łukowa, kropka zamiast numeru	!	!LO:TX:t=P:global:problem=klamra łukowa, kropka zamiast numeru	!	!	!	!	!	!	!	!	!	!
8A\L	x	.	24f/LL	.	24cc\LL	.	2ryy	2ryy	2ryy	.	.	2ryy	2ryy	2ryy	2ryy
.	.	.	24dd\	.	24ff\	.	.	.	.	.	.	.	.	.	.
.	.	.	24cc\JJ	.	24een\JJ	.	.	.	.	.	.	.	.	.	.
!	!	!	!LO:TUP:b	!	!	!	!	!	!	!	!	!	!	!	!
8B-\	.	.	24b-/LL	.	24dd\LL	.	.	.	.	.	.	.	.	.	.
.	.	.	24a/	.	24cc\	.	.	.	.	.	.	.	.	.	.
.	.	.	24g/JJ	.	24b-\JJ	.	.	.	.	.	.	.	.	.	.
8c\	6 4	.	8f/L	.	8a/L	.	.	.	.	.	.	.	.	.	.
8C/J	5 n	.	8en/J	.	8g/J	.	.	.	.	.	.	.	.	.	.
!LO:LB:g=original	!	!	!	!	!	!	!	!	!	!	!	!	!	!	!
=61	=61	=61	=61	=61	=61	=61	=61	=61	=61	=61	=61	=61	=61	=61	=61
!LO:TX:t=P:problem=mixed beam	!	!	!	!	!	!	!	!	!	!	!	!	!	!	!
8F\L	.	.	8f/L	.	8f/L	.	2ryy	2ryy	2ryy	2r	.	2ryy	2ryy	2ryy	2ryy
8C/J	.	.	8c/J	.	8c/J	.	.	.	.	.	.	.	.	.	.
4FF/	.	.	4A/	.	4f/	.	.	.	.	.	.	.	.	.	.
=62	=62	=62	=62	=62	=62	=62	=62	=62	=62	=62	=62	=62	=62	=62	=62
*tremolo	*	*	*tremolo	*	*	*	*	*	*	*	*	*	*	*	*
!	!	!	!LO:TX:b:i:t=VS:	!	!	!	!	!	!	!	!	!	!	!	!
!LO:TX:a:i:t=Solo	!	!LO:DY:t=po	!LO:TX:a:i:t=Solo	!LO:DY:t=pia	!LO:TX:a:i:t=Solo	!LO:DY:t=pia	!	!	!	!	!	!	!	!	!
8F\L	.	p	8A/L	p	8.f/L	p	2ryy	2ryy	2ryy	8.f\L	be-	2ryy	2ryy	2ryy	2ryy
8F\	.	.	8A/	.	.	.	.	.	.	.	.	.	.	.	.
.	.	.	.	.	16a/Jk	.	.	.	.	16a\Jk	.	.	.	.	.
8F\	.	.	8A/	.	16cc/LL	.	.	.	.	16cc\LL	.	.	.	.	.
.	.	.	.	.	16a/	.	.	.	.	16a\JJ	.	.	.	.	.
8F\J	.	.	8A/J	.	16g/	.	.	.	.	16g\LL	-ne-	.	.	.	.
.	.	.	.	.	16f/JJ	.	.	.	.	16f\JJ	.	.	.	.	.
*Xtremolo	*	*	*Xtremolo	*	*	*	*	*	*	*	*	*	*	*	*
!	!	!	!LO:PB:g=original	!	!	!	!	!	!	!	!	!	!	!	!
=63	=63	=63	=63	=63	=63	=63	=63	=63	=63	=63	=63	=63	=63	=63	=63
!LO:TX:t=P:problem=mixed beam	!	!	!	!	!	!	!	!	!	!	!	!	!	!	!
8En\L	.	.	8c/L	.	8.g/L	.	2ryy	2ryy	2ryy	8.g\L	-dic-	2ryy	2ryy	2ryy	2ryy
8C\	7	.	16en/L	.	.	.	.	.	.	.	.	.	.	.	.
.	.	.	16g/JJ	.	16b-/Jk	.	.	.	.	16b-\Jk	.	.	.	.	.
8F\	.	.	16f/LL	.	16a/LL	.	.	.	.	16a\LL	-tus	.	.	.	.
.	.	.	16a/	.	16cc/	.	.	.	.	16cc\JJ	.	.	.	.	.
8AA/J	.	.	16A/	.	16f/	.	.	.	.	16f/LL	qui	.	.	.	.
.	.	.	16c/JJ	.	16a/JJ	.	.	.	.	16a/JJ	.	.	.	.	.
=64	=64	=64	=64	=64	=64	=64	=64	=64	=64	=64	=64	=64	=64	=64	=64
8BB-/L	.	.	16c/LL	.	16a/LL	.	2ryy	2ryy	2ryy	16a\LL	ve-	2ryy	2ryy	2ryy	2ryy
.	.	.	16B-/	.	16g/	.	.	.	.	16g\	.	.	.	.	.
8BB-/	.	.	16c/	.	16b-/	.	.	.	.	16b-\	.	.	.	.	.
.	.	.	16B-/JJ	.	16g/JJ	.	.	.	.	16g\JJ	.	.	.	.	.
8C/	.	.	16B-/LL	.	16g/LL	.	.	.	.	16g/LL	.	.	.	.	.
.	.	.	16A/	.	16f/	.	.	.	.	16f/	.	.	.	.	.
8C/J	.	.	16A/	.	16f/	.	.	.	.	16f/	.	.	.	.	.
.	.	.	16G/JJ	.	16en/JJ	.	.	.	.	16en/JJ	.	.	.	.	.
!	!	!	!	!	!	!	!	!	!	!LO:LB:g=original	!	!	!	!	!
=65	=65	=65	=65	=65	=65	=65	=65	=65	=65	=65	=65	=65	=65	=65	=65
!LO:TX:t=P:problem=mixed beam	!	!	!	!	!	!	!	!	!	!	!	!	!	!	!
16FF/LL	.	.	16A/LL	.	4f/	.	2ryy	2ryy	2ryy	4f/	-nit	2ryy	2ryy	2ryy	2ryy
16F\	.	.	16f/	.	.	.	.	.	.	.	.	.	.	.	.
16C\	.	.	16c/	.	.	.	.	.	.	.	.	.	.	.	.
16AA\JJ	.	.	16A/JJ	.	.	.	.	.	.	.	.	.	.	.	.
8FF/	.	.	16f/LL	.	16r	.	.	.	.	16r	.	.	.	.	.
.	.	.	16f/	.	16a\LL	.	.	.	.	16a\LL	qui	.	.	.	.
8r	.	.	16g/	.	16b-\	.	.	.	.	16b-\	.	.	.	.	.
.	.	.	16a/JJ	.	16cc\JJ	.	.	.	.	16cc\JJ	.	.	.	.	.
=66	=66	=66	=66	=66	=66	=66	=66	=66	=66	=66	=66	=66	=66	=66	=66
8r	.	.	16a/LL	.	16cc\LL	.	2ryy	2ryy	2ryy	16cc\LL	ve-	2ryy	2ryy	2ryy	2ryy
.	.	.	16g/	.	16b-\	.	.	.	.	16b-\	.	.	.	.	.
8C\L	.	.	16f/	.	16a\	.	.	.	.	16a\	.	.	.	.	.
.	.	.	16en/JJ	.	16g\JJ	.	.	.	.	16g\JJ	.	.	.	.	.
8En\	.	.	8e/L	.	8g\L	.	.	.	.	8g\	-nit	.	.	.	.
8C\J	.	.	8g/J	.	8b-\J	.	.	.	.	8b-\	qui	.	.	.	.
!	!	!	!	!	!LO:LB:g=original	!	!	!	!	!	!	!	!	!	!
=67	=67	=67	=67	=67	=67	=67	=67	=67	=67	=67	=67	=67	=67	=67	=67
8r	.	.	16f/LL	.	16a\LL	.	2ryy	2ryy	2ryy	16a\LL	ve-	2ryy	2ryy	2ryy	2ryy
.	.	.	16en/	.	16g\	.	.	.	.	16g\	.	.	.	.	.
8F\L	.	.	16f/	.	16a\	.	.	.	.	16a\	.	.	.	.	.
.	.	.	16g/JJ	.	16b-\JJ	.	.	.	.	16b-\JJ	.	.	.	.	.
8A\	.	.	8a\L	.	8cc\L	.	.	.	.	8cc\	-nit	.	.	.	.
8F\J	.	.	8cc\J	.	[8ff\J	.	.	.	.	8ff\	in	.	.	.	.
=68	=68	=68	=68	=68	=68	=68	=68	=68	=68	=68	=68	=68	=68	=68	=68
4B-\	.	.	16dd\LL	.	16ff\LL]	.	2ryy	2ryy	2ryy	16ff\LL	no-	2ryy	2ryy	2ryy	2ryy
.	.	.	16b-\	.	16dd\	.	.	.	.	16dd\JJ	.	.	.	.	.
.	.	.	16a\	.	16cc\	.	.	.	.	16cc\	-mi-	.	.	.	.
.	.	.	16g\JJ	.	16b-\JJ	.	.	.	.	16b-\	-ne	.	.	.	.
!LO:TX:t=P:problem=mixed beam	!	!	!	!	!	!	!	!	!	!	!	!	!	!	!
8c\L	.	.	8f/L	.	8a/L	.	.	.	.	8a\	do-	.	.	.	.
8C/J	.	.	8en/J	.	8g/J	.	.	.	.	8g\	-mi-	.	.	.	.
=69	=69	=69	=69	=69	=69	=69	=69	=69	=69	=69	=69	=69	=69	=69	=69
8F\L	.	.	8f/L|	.	8f/L	f	2ryy	2ryy	2ryy	4f/	-ni	2ryy	2ryy	2ryy	2ryy
16F\L|	.	f	16f/L|	f	16f/L|	.	.	.	.	.	.	.	.	.	.
16G\JJ|	.	.	16g/JJ|	.	16g/JJ|	.	.	.	.	.	.	.	.	.	.
16F\LL|	.	.	16f/LL|	.	16f/LL|	.	.	.	.	4r	.	.	.	.	.
16E-X\|	.	.	16e-X/|	.	16e-X/|	.	.	.	.	.	.	.	.	.	.
16D\|	.	.	16d/|	.	16d/|	.	.	.	.	.	.	.	.	.	.
16C\JJ|	.	.	16c/JJ|	.	16c/JJ|	.	.	.	.	.	.	.	.	.	.
!	!	!	!LO:LB:g=original	!	!	!	!	!	!	!LO:PB:g=original	!	!	!	!	!
=70	=70	=70	=70	=70	=70	=70	=70	=70	=70	=70	=70	=70	=70	=70	=70
*tremolo	*	*	*tremolo	*	*	*	*	*	*	*	*	*	*	*	*
.	.	.	.	.	8qqB-/	.	.	.	.	.	.	.	.	.	.
!	!	!LO:DY:t=po	!	!LO:DY:rj:t=po	!	!LO:DY:t=po&colon;	!	!	!	!	!	!	!	!	!
8BB-/L	.	p	8d/L	p	8.b-\L	p	2ryy	2ryy	2ryy	8.b-\L	be-	2ryy	2ryy	2ryy	2ryy
8BB-/	.	.	8d/	.	.	.	.	.	.	.	.	.	.	.	.
.	.	.	.	.	16dd\Jk	.	.	.	.	16dd\Jk	.	.	.	.	.
8BB-/	.	.	8d/	.	16ff\LL	.	.	.	.	16ff\LL	.	.	.	.	.
.	.	.	.	.	16dd\	.	.	.	.	16dd\JJ	.	.	.	.	.
8BB-/J	.	.	8d/J	.	16cc\	.	.	.	.	16cc\LL	-ne-	.	.	.	.
.	.	.	.	.	16b-\JJ	.	.	.	.	16b-\JJ	.	.	.	.	.
*Xtremolo	*	*	*Xtremolo	*	*	*	*	*	*	*	*	*	*	*	*
!LO:LB:g=original	!	!	!	!	!	!	!	!	!	!	!	!	!	!	!
=71	=71	=71	=71	=71	=71	=71	=71	=71	=71	=71	=71	=71	=71	=71	=71
8A\L	.	.	8f/L	.	8.cc\L	.	2ryy	2ryy	2ryy	8.cc\L	-dic-	2ryy	2ryy	2ryy	2ryy
8F\	.	.	16a/L	.	.	.	.	.	.	.	.	.	.	.	.
.	.	.	16cc/JJ	.	16ee-\Jk	.	.	.	.	16ee-\Jk	.	.	.	.	.
!	!	!	!LO:TX:t=P:problem=mixed beam	!	!	!	!	!	!	!	!	!	!	!	!
8B-\	.	.	16b-\LL	.	16dd\LL	.	.	.	.	16dd\LL	-tus	.	.	.	.
.	.	.	16dd\	.	16ff\	.	.	.	.	16ff\JJ	.	.	.	.	.
8D\J	.	.	16d/	.	16b-\	.	.	.	.	16b-\LL	qui	.	.	.	.
.	.	.	16f/JJ	.	16dd\JJ	.	.	.	.	16dd\JJ	.	.	.	.	.
=72	=72	=72	=72	=72	=72	=72	=72	=72	=72	=72	=72	=72	=72	=72	=72
4E-\	.	.	16f/LL	.	16dd\LL	.	2ryy	2ryy	2ryy	16dd\LL	ve-	2ryy	2ryy	2ryy	2ryy
.	.	.	16e-/	.	16cc\	.	.	.	.	16cc\	.	.	.	.	.
.	.	.	16g/	.	16ee-\	.	.	.	.	16ee-\	.	.	.	.	.
.	.	.	16e-/JJ	.	16cc\JJ	.	.	.	.	16cc\JJ	.	.	.	.	.
!LO:TX:t=P:problem=mixed beam	!	!	!	!	!	!	!	!	!	!	!	!	!	!	!
8F\L	.	.	16e-/LL	.	16cc\LL	.	.	.	.	16cc\LL	.	.	.	.	.
.	.	.	16d/	.	16b-\	.	.	.	.	16b-\	.	.	.	.	.
8FF/J	.	.	16d/	.	16b-\	.	.	.	.	16b-\	.	.	.	.	.
.	.	.	16c/JJ	.	16a\JJ	.	.	.	.	16a\JJ	.	.	.	.	.
=73	=73	=73	=73	=73	=73	=73	=73	=73	=73	=73	=73	=73	=73	=73	=73
!LO:TX:t=P:problem=mixed beam	!	!	!	!	!	!	!	!	!	!	!	!	!	!	!
16BB-/LL	.	.	16d/LL	.	16b-\LL|	.	2ryy	2ryy	2ryy	4b-\	-nit	2ryy	2ryy	2ryy	2ryy
16B-\	.	.	16b-/	.	16b-\|	.	.	.	.	.	.	.	.	.	.
16F\	.	.	16f/	.	16f\|	.	.	.	.	.	.	.	.	.	.
16D\JJ	.	.	16d/JJ	.	16d\JJ|	.	.	.	.	.	.	.	.	.	.
!	!	!	!LO:TX:t=P:problem=mixed beam	!	!LO:TX:t=P:problem=mixed beam	!	!	!	!	!	!	!	!	!	!
8BB-/	.	.	16B-/LL	.	16B-/LL	.	.	.	.	16r	.	.	.	.	.
.	.	.	16b-\	.	(>16dd\	.	.	.	.	16dd\LL	qui	.	.	.	.
8r	.	.	16cc\	.	16ee-\	.	.	.	.	16ee-\	.	.	.	.	.
.	.	.	16dd\JJ	.	16ff\JJ)	.	.	.	.	16ff\JJ	.	.	.	.	.
=74	=74	=74	=74	=74	=74	=74	=74	=74	=74	=74	=74	=74	=74	=74	=74
8r	.	.	16dd\LL	.	(16ff\LL	.	2ryy	2ryy	2ryy	16ff\LL	ve-	2ryy	2ryy	2ryy	2ryy
.	.	.	16cc\	.	16ee-\	.	.	.	.	16ee-\	.	.	.	.	.
8F\L	.	.	16b-\	.	16dd\	.	.	.	.	16dd\	.	.	.	.	.
.	.	.	16a\JJ	.	16cc\JJ)	.	.	.	.	16cc\JJ	.	.	.	.	.
8A\	.	.	8a\L	.	8cc\L	.	.	.	.	8cc\	-nit	.	.	.	.
8F\J	.	.	8cc\J	.	8ee-\J	.	.	.	.	8ee-\	in	.	.	.	.
!	!	!	!	!	!LO:LB:g=original	!	!	!	!	!LO:LB:g=original	!	!	!	!	!
=75	=75	=75	=75	=75	=75	=75	=75	=75	=75	=75	=75	=75	=75	=75	=75
8r	.	.	16b-\LL	.	16dd\LL	.	2ryy	2ryy	2ryy	16dd\LL	no-	2ryy	2ryy	2ryy	2ryy
.	.	.	16a\	.	16cc\	.	.	.	.	16cc\	.	.	.	.	.
8BB-/L	.	.	16b-\	.	16dd\	.	.	.	.	16dd\	.	.	.	.	.
.	.	.	16cc\JJ	.	16ee-\JJ	.	.	.	.	16ee-\JJ	.	.	.	.	.
8D/	.	.	4dd\	.	8ff\L	.	.	.	.	8ff\L	.	.	.	.	.
8BB-/J	.	.	.	.	8bb-\J	.	.	.	.	8bb-\J	.	.	.	.	.
=76	=76	=76	=76	=76	=76	=76	=76	=76	=76	=76	=76	=76	=76	=76	=76
4E-\	.	.	8.ee-\L	.	8.gg\L	.	2ryy	2ryy	2ryy	8.gg\L	.	2ryy	2ryy	2ryy	2ryy
.	.	.	16dd\Jk	.	16ff\Jk	.	.	.	.	16ff\Jk	.	.	.	.	.
8r	.	.	16dd\LL	.	16ff\LL	.	.	.	.	16ff\LL	.	.	.	.	.
.	.	.	16cc\	.	16ee-\	.	.	.	.	16ee-\JJ	.	.	.	.	.
8E-\	.	.	16cc\	.	16ee-\	.	.	.	.	16ee-\LL	-mi-	.	.	.	.
.	.	.	16b-\JJ	.	16dd\JJ	.	.	.	.	16dd\JJ	.	.	.	.	.
=77	=77	=77	=77	=77	=77	=77	=77	=77	=77	=77	=77	=77	=77	=77	=77
!LO:TX:t=P:problem=mixed beam	!	!	!	!	!	!	!	!	!	!	!	!	!	!	!
.	.	.	8qqb-/	.	8qqdd/	.	.	.	.	8qqdd/	.	.	.	.	.
8F\L	.	.	4a\	.	4cc\	.	2ryy	2ryy	2ryy	4cc\	-ne	2ryy	2ryy	2ryy	2ryy
8FF/	.	.	.	.	.	.	.	.	.	.	.	.	.	.	.
8F\J	.	.	4r	.	4r	.	.	.	.	8r	.	.	.	.	.
8r	.	.	.	.	.	.	.	.	.	8ff\	in	.	.	.	.
=78	=78	=78	=78	=78	=78	=78	=78	=78	=78	=78	=78	=78	=78	=78	=78
*tremolo	*	*	*	*	*	*	*	*	*	*	*	*	*	*	*
8BB-/L	7-	.	8r	.	8r	.	2ryy	2ryy	2ryy	8.ff\L	no-	2ryy	2ryy	2ryy	2ryy
8BB-/	.	.	8dd\L	.	8ff\L	.	.	.	.	.	.	.	.	.	.
.	.	.	.	.	.	.	.	.	.	16dd\Jk	.	.	.	.	.
8BB-/	.	.	8dd\	.	8ff\	.	.	.	.	16b-\LL	-mi-	.	.	.	.
.	.	.	.	.	.	.	.	.	.	16dd\JJ	.	.	.	.	.
8BB-/J	.	.	8dd\J	.	8ff\J	.	.	.	.	16ff\LL	-ne	.	.	.	.
.	.	.	.	.	.	.	.	.	.	16aa-X\JJ	.	.	.	.	.
*Xtremolo	*	*	*	*	*	*	*	*	*	*	*	*	*	*	*
!	!	!	!LO:LB:g=original	!	!	!	!	!	!	!	!	!	!	!	!
=79	=79	=79	=79	=79	=79	=79	=79	=79	=79	=79	=79	=79	=79	=79	=79
8E-/L	.	.	16b-/LL	.	16gg\LL	.	2ryy	2ryy	2ryy	16gg\LL	do-	2ryy	2ryy	2ryy	2ryy
.	.	.	16a-X/	.	16ff\	.	.	.	.	16ff\JJ	.	.	.	.	.
8BB-/	.	.	16a-/	.	16ff\	.	.	.	.	16ff\LL	-mi-	.	.	.	.
.	.	.	16g/JJ	.	16ee-\JJ	.	.	.	.	16ee-\JJ	.	.	.	.	.
8EE-/J	.	.	8g/	.	8ee-\	.	.	.	.	8ee-\	-ni	.	.	.	.
8r	.	.	8r	.	8r	.	.	.	.	8gg\	in	.	.	.	.
=80	=80	=80	=80	=80	=80	=80	=80	=80	=80	=80	=80	=80	=80	=80	=80
*tremolo	*	*	*	*	*	*	*	*	*	*	*	*	*	*	*
8C/L	7 n	.	8r	.	8r	.	2ryy	2ryy	2ryy	8.gg\L	no-	2ryy	2ryy	2ryy	2ryy
8C/	.	.	8een\L	.	8gg\L	.	.	.	.	.	.	.	.	.	.
.	.	.	.	.	.	.	.	.	.	16een\Jk	.	.	.	.	.
8C/	.	.	8ee\	.	8gg\	.	.	.	.	16cc\LL	-mi-	.	.	.	.
.	.	.	.	.	.	.	.	.	.	16ee\JJ	.	.	.	.	.
8C/J	.	.	8ee\J	.	8gg\J	.	.	.	.	16gg\LL	-ne	.	.	.	.
.	.	.	.	.	.	.	.	.	.	16bb-\JJ	.	.	.	.	.
*Xtremolo	*	*	*	*	*	*	*	*	*	*	*	*	*	*	*
!	!	!	!	!	!	!	!	!	!	!LO:LB:g=original	!	!	!	!	!
=81	=81	=81	=81	=81	=81	=81	=81	=81	=81	=81	=81	=81	=81	=81	=81
!LO:TX:t=P:problem=mixed beam	!	!	!	!	!	!	!	!	!	!	!	!	!	!	!
8F\L	n	.	16cc\LL	.	16aan\LL	.	2ryy	2ryy	2ryy	16aan\LL	do-	2ryy	2ryy	2ryy	2ryy
.	.	.	16b-\	.	16gg\	.	.	.	.	16gg\JJ	.	.	.	.	.
8C/	.	.	16b-\	.	16gg\	.	.	.	.	16gg\LL	-mi-	.	.	.	.
.	.	.	16a\JJ	.	16ff\JJ	.	.	.	.	16ff\JJ	.	.	.	.	.
8FF/J	.	.	8a\L	.	8ff\L	.	.	.	.	8ff\	-ni	.	.	.	.
8r	.	.	16a\L	.	16cc\L	.	.	.	.	16cc\LL	in	.	.	.	.
.	.	.	16b-\JJ	.	16dd\JJ	.	.	.	.	16dd\JJ	.	.	.	.	.
!LO:LB:g=original	!	!	!	!	!	!	!	!	!	!	!	!	!	!	!
=82	=82	=82	=82	=82	=82	=82	=82	=82	=82	=82	=82	=82	=82	=82	=82
*tremolo	*	*	*	*	*	*	*	*	*	*	*	*	*	*	*
8F\L	7-	.	8cc\L	.	8ee-\L	.	2ryy	2ryy	2ryy	8ee-X\	no-	2ryy	2ryy	2ryy	2ryy
8F\	.	.	8cc\J	.	8ee-\J	.	.	.	.	16ee-\	-mi-	.	.	.	.
.	.	.	.	.	.	.	.	.	.	16ee-\	-ne	.	.	.	.
8F\	.	.	16cc\LL	.	16ee-\LL	.	.	.	.	16ee-\LL	do-	.	.	.	.
.	.	.	16b-\	.	16dd\	.	.	.	.	16dd\JJ	.	.	.	.	.
8F\J	.	.	16a\	.	16cc\	.	.	.	.	16cc\LL	-mi-	.	.	.	.
.	.	.	16b-\JJ	.	16dd\JJ	.	.	.	.	16dd\JJ	.	.	.	.	.
*Xtremolo	*	*	*	*	*	*	*	*	*	*	*	*	*	*	*
=83	=83	=83	=83	=83	=83	=83	=83	=83	=83	=83	=83	=83	=83	=83	=83
8F\L|	.	.	8a/L	.	8cc\	.	2ryy	2ryy	2ryy	8cc\	-ni	2ryy	2ryy	2ryy	2ryy
(32F\LL	.	f	(32f/LL	f	(32f/LLL	f	.	.	.	8r	.	.	.	.	.
32En\)	.	.	32en/)	.	32en/)	.	.	.	.	.	.	.	.	.	.
(32F\	.	.	(32f/	.	(32f/	.	.	.	.	.	.	.	.	.	.
32E\JJJ)	.	.	32e/JJJ)	.	32e/JJJ)	.	.	.	.	.	.	.	.	.	.
!	!	!	!LO:TX:t=P:problem=mixed beam	!	!	!	!	!	!	!	!	!	!	!	!
8F\	.	.	8f/L	.	8f/L|<	.	.	.	.	8r	.	.	.	.	.
!	!	!	!	!LO:DY:t=po	!	!LO:DY:t=po&colon;	!	!	!	!	!	!	!	!	!
8r	.	.	16b-\L	p	(16dd\L	p	.	.	.	16dd\LL	in	.	.	.	.
.	.	.	16cc\JJ	.	16ee-\JJ)	.	.	.	.	16ee-\JJ	.	.	.	.	.
!	!	!	!	!	!LO:LB:g=original	!	!	!	!	!	!	!	!	!	!
=84	=84	=84	=84	=84	=84	=84	=84	=84	=84	=84	=84	=84	=84	=84	=84
*tremolo	*	*	*	*	*	*	*	*	*	*	*	*	*	*	*
!	!	!LO:DY:t=po	!	!	!	!	!	!	!	!	!	!	!	!	!
8B-\L	.	p	8dd\L	.	8ff\L	.	2ryy	2ryy	2ryy	8ff\	no-	2ryy	2ryy	2ryy	2ryy
8B-\	.	.	8dd\J	.	8ff\J	.	.	.	.	16ff\	-mi-	.	.	.	.
.	.	.	.	.	.	.	.	.	.	16ff\	-ne	.	.	.	.
8B-\	.	.	16dd\LL	.	16ff\LL	.	.	.	.	16ff\LL	do-	.	.	.	.
.	.	.	16cc\	.	16ee-\	.	.	.	.	16ee-\JJ	.	.	.	.	.
8B-\J	.	.	16b-\	.	16dd\	.	.	.	.	16dd\LL	-mi-	.	.	.	.
.	.	.	16cc\JJ	.	16ee-\JJ	.	.	.	.	16ee-\JJ	.	.	.	.	.
*Xtremolo	*	*	*	*	*	*	*	*	*	*	*	*	*	*	*
=85	=85	=85	=85	=85	=85	=85	=85	=85	=85	=85	=85	=85	=85	=85	=85
!	!	!	!LO:TX:t=P:problem=mixed beam	!	!LO:TX:t=P:problem=mixed beam	!	!	!	!	!	!	!	!	!	!
8B-\L|	.	.	8b-\L	.	8dd\L	.	2ryy	2ryy	2ryy	8dd\	-ni	2ryy	2ryy	2ryy	2ryy
(32B-\LL	.	f	32B-/LL	f	32B-/LL	f	.	.	.	8r	.	.	.	.	.
32A\)	.	.	32A/	.	32A/	.	.	.	.	.	.	.	.	.	.
(32B-\	.	.	32B-/	.	32B-/	.	.	.	.	.	.	.	.	.	.
32A\JJJ)	.	.	32A/JJJ	.	32A/JJJ	.	.	.	.	.	.	.	.	.	.
!	!	!LO:DY:t=po	!LO:TX:t=P:problem=mixed beam	!	!LO:TX:t=P:problem=mixed beam	!	!	!	!	!	!	!	!	!	!
8B-\L	.	p	8B-/L	.	8B-/L	.	.	.	.	8r	.	.	.	.	.
!	!	!	!	!LO:DY:t=pi	!	!LO:DY:t=po	!	!	!	!	!	!	!	!	!
8D\J	.	.	8b-\J	p	8ff\J	p	.	.	.	8ff\	in	.	.	.	.
!	!	!	!LO:LB:g=original	!	!	!	!	!	!	!LO:LB:g=original	!	!	!	!	!
=86	=86	=86	=86	=86	=86	=86	=86	=86	=86	=86	=86	=86	=86	=86	=86
*tremolo	*	*	*tremolo	*	*tremolo	*	*	*	*	*	*	*	*	*	*
8E-\L	3	.	8b-\L	.	8gg\L	.	2ryy	2ryy	2ryy	16gg\LL	no-	2ryy	2ryy	2ryy	2ryy
.	.	.	.	.	.	.	.	.	.	16ee-\JJ	.	.	.	.	.
8E-\	.	.	8b-\	.	8gg\	.	.	.	.	32ff\LLL	.	.	.	.	.
.	.	.	.	.	.	.	.	.	.	32ee-\	.	.	.	.	.
.	.	.	.	.	.	.	.	.	.	32dd\	.	.	.	.	.
.	.	.	.	.	.	.	.	.	.	32ee-\JJJ	.	.	.	.	.
8E-\	.	.	8b-\	.	8gg\	.	.	.	.	8b-\L	.	.	.	.	.
8E-\J	.	.	8b-\J	.	8gg\J	.	.	.	.	8gg\J	.	.	.	.	.
=87	=87	=87	=87	=87	=87	=87	=87	=87	=87	=87	=87	=87	=87	=87	=87
8D\L	6	.	8b-\L	.	8ff\L	.	2ryy	2ryy	2ryy	16ff\LL	.	2ryy	2ryy	2ryy	2ryy
.	.	.	.	.	.	.	.	.	.	16dd\JJ	.	.	.	.	.
8D\	.	.	8b-\	.	8ff\	.	.	.	.	32ee-\LLL	.	.	.	.	.
.	.	.	.	.	.	.	.	.	.	32dd\	.	.	.	.	.
.	.	.	.	.	.	.	.	.	.	32cc\	.	.	.	.	.
.	.	.	.	.	.	.	.	.	.	32dd\JJJ	.	.	.	.	.
8D\	.	.	8b-\	.	8ff\	.	.	.	.	8b-\L	.	.	.	.	.
8D\J	.	.	8b-\J	.	8ff\J	.	.	.	.	8ff\J	.	.	.	.	.
*Xtremolo	*	*	*Xtremolo	*	*Xtremolo	*	*	*	*	*	*	*	*	*	*
=88	=88	=88	=88	=88	=88	=88	=88	=88	=88	=88	=88	=88	=88	=88	=88
4E-\	.	.	8b-\L	.	16gg\LL	.	2ryy	2ryy	2ryy	16gg\LL	.	2ryy	2ryy	2ryy	2ryy
.	.	.	.	.	16bb-\	.	.	.	.	16bb-\JJ	.	.	.	.	.
.	.	.	8cc\	.	16gg\	.	.	.	.	16gg\	-mi-	.	.	.	.
.	.	.	.	.	16ee-\JJ	.	.	.	.	16ee-\	-ne	.	.	.	.
!LO:TX:t=P:problem=mixed beam	!	!	!	!	!	!	!	!	!	!	!	!	!	!	!
8F\L	6 4	.	8b-\	.	8dd\L	.	.	.	.	8dd\	do-	.	.	.	.
8FF/J	5 3	.	8a\J	.	8cc\J	.	.	.	.	8cc\	-mi-	.	.	.	.
=89	=89	=89	=89	=89	=89	=89	=89	=89	=89	=89	=89	=89	=89	=89	=89
!LO:TX:t=P:problem=mixed beam	!	!	!LO:TX:t=P:problem=mixed beam	!	!LO:TX:t=P:problem=mixed beam	!LO:DY:t=for.	!	!	!	!	!	!	!	!	!
16BB-/LL	.	f	16b-\LL	.	16b-\LL	f	2ryy	2ryy	2ryy	8b-\	-ni	2ryy	2ryy	2ryy	2ryy
16B-\	.	.	16B-/	.	16B-/	.	.	.	.	.	.	.	.	.	.
16F\	.	.	16d/	.	16d/	.	.	.	.	8r	.	.	.	.	.
16D\JJ	.	.	16f/JJ	.	16f/JJ	.	.	.	.	.	.	.	.	.	.
8BB-/	.	.	8b-\L	.	8b-\L	.	.	.	.	8r	.	.	.	.	.
!	!	!	!	!	!	!LO:DY:t=po.	!	!	!	!	!	!	!	!	!
8r	.	.	16a\L	.	16cc\L	p	.	.	.	16cc\LL	in	.	.	.	.
.	.	.	16b-\JJ	.	16dd\JJ	.	.	.	.	16dd\JJ	.	.	.	.	.
=90	=90	=90	=90	=90	=90	=90	=90	=90	=90	=90	=90	=90	=90	=90	=90
*tremolo	*	*	*	*	*	*	*	*	*	*	*	*	*	*	*
!	!	!LO:DY:t=pia	!	!	!	!	!	!	!	!	!	!	!	!	!
8F\L	7	p	8cc\L	.	8ee-\L	.	2ryy	2ryy	2ryy	8ee-\	no-	2ryy	2ryy	2ryy	2ryy
8F\	.	.	8cc\J	.	8ee-\J	.	.	.	.	16ee-\	-mi-	.	.	.	.
.	.	.	.	.	.	.	.	.	.	16ee-\	-ne	.	.	.	.
8F\	.	.	16cc\LL	.	16ee-\LL	.	.	.	.	16ee-\LL	do-	.	.	.	.
.	.	.	16b-\	.	16dd\	.	.	.	.	16dd\JJ	.	.	.	.	.
8F\J	.	.	16a\	.	16cc\	.	.	.	.	16cc\LL	-mi-	.	.	.	.
.	.	.	16b-\JJ	.	16dd\JJ	.	.	.	.	16dd\JJ	.	.	.	.	.
*Xtremolo	*	*	*	*	*	*	*	*	*	*	*	*	*	*	*
!	!	!	!	!	!	!	!	!	!	!LO:LB:g=original	!	!	!	!	!
=91	=91	=91	=91	=91	=91	=91	=91	=91	=91	=91	=91	=91	=91	=91	=91
!	!	!	!	!	!LO:TX:t=P:problem=mixed beam	!	!	!	!	!	!	!	!	!	!
8F\L	.	.	8a/L	.	8cc\L	.	2ryy	2ryy	2ryy	8cc\	-ni	2ryy	2ryy	2ryy	2ryy
32F\LL	.	f	32f/LL	f	32f/LL	f	.	.	.	8r	.	.	.	.	.
32En\	.	.	32en/	.	32en/	.	.	.	.	.	.	.	.	.	.
32F\	.	.	32f/	.	32f/	.	.	.	.	.	.	.	.	.	.
32E\JJJ	.	.	32e/JJJ	.	32e/JJJ	.	.	.	.	.	.	.	.	.	.
!	!	!	!	!	!LO:TX:t=P:problem=mixed beam	!	!	!	!	!	!	!	!	!	!
8F\	.	.	8f/L	.	8f/L	.	.	.	.	8r	.	.	.	.	.
!	!	!	!	!LO:DY:t=pia	!	!LO:DY:t=po.	!	!	!	!	!	!	!	!	!
8r	.	.	16b-/L	p	16dd\L	p	.	.	.	16dd\LL	in	.	.	.	.
.	.	.	16cc/JJ	.	16ee-\JJ	.	.	.	.	16ee-\JJ	.	.	.	.	.
!LO:LB:g=original	!	!	!	!	!LO:LB:g=original	!	!	!	!	!	!	!	!	!	!
=92	=92	=92	=92	=92	=92	=92	=92	=92	=92	=92	=92	=92	=92	=92	=92
*tremolo	*	*	*	*	*	*	*	*	*	*	*	*	*	*	*
!	!	!LO:DY:t=po	!	!	!	!	!	!	!	!	!	!	!	!	!
8B-\L	.	p	8dd\L	.	8ff\L	.	2ryy	2ryy	2ryy	8ff\	no-	2ryy	2ryy	2ryy	2ryy
8B-\	.	.	8dd\J	.	8ff\J	.	.	.	.	16ff\	-mi-	.	.	.	.
.	.	.	.	.	.	.	.	.	.	16ff\	-ne	.	.	.	.
8B-\	.	.	16dd\LL	.	16ff\LL	.	.	.	.	16ff\LL	do-	.	.	.	.
.	.	.	16cc\	.	16ee-\	.	.	.	.	16ee-\JJ	.	.	.	.	.
8B-\J	.	.	16b-\	.	16dd\	.	.	.	.	16dd\LL	-mi-	.	.	.	.
.	.	.	16cc\JJ	.	16ee-\JJ	.	.	.	.	16ee-\JJ	.	.	.	.	.
*Xtremolo	*	*	*	*	*	*	*	*	*	*	*	*	*	*	*
=93	=93	=93	=93	=93	=93	=93	=93	=93	=93	=93	=93	=93	=93	=93	=93
!	!	!	!	!	!LO:TX:t=P:problem=mixed beam	!	!	!	!	!	!	!	!	!	!
8B-\L	.	.	8b-/L	.	8dd\L	.	2ryy	2ryy	2ryy	8dd\	-ni	2ryy	2ryy	2ryy	2ryy
32B-\LL	.	f	32B-/LL	f	32B-/LL	f	.	.	.	8r	.	.	.	.	.
32A\	.	.	32A/	.	32A/	.	.	.	.	.	.	.	.	.	.
32B-\	.	.	32B-/	.	32B-/	.	.	.	.	.	.	.	.	.	.
32A\JJJ	.	.	32A/JJJ	.	32A/JJJ	.	.	.	.	.	.	.	.	.	.
!	!	!LO:DY:t=po	!LO:TX:t=P:problem=mixed beam	!	!LO:TX:t=P:problem=mixed beam	!	!	!	!	!	!	!	!	!	!
8B-\L	.	p	8B-/L	.	8B-/L	.	.	.	.	8r	.	.	.	.	.
!	!	!	!	!LO:DY:t=po	!	!LO:DY:t=piano.	!	!	!	!	!	!	!	!	!
8D\J	.	.	8b-\J	p	8ff\J	p	.	.	.	8ff\	in	.	.	.	.
=94	=94	=94	=94	=94	=94	=94	=94	=94	=94	=94	=94	=94	=94	=94	=94
*tremolo	*	*	*tremolo	*	*tremolo	*	*	*	*	*	*	*	*	*	*
8E-\L	3	.	8b-\L	.	8gg\L	.	2ryy	2ryy	2ryy	16gg\LL	no-	2ryy	2ryy	2ryy	2ryy
.	.	.	.	.	.	.	.	.	.	16ee-\JJ	.	.	.	.	.
8E-\	.	.	8b-\	.	8gg\	.	.	.	.	32ff\LLL	.	.	.	.	.
.	.	.	.	.	.	.	.	.	.	32ee-\	.	.	.	.	.
.	.	.	.	.	.	.	.	.	.	32dd\	.	.	.	.	.
.	.	.	.	.	.	.	.	.	.	32ee-\JJJ	.	.	.	.	.
8E-\	.	.	8b-\	.	8gg\	.	.	.	.	8b-\L	.	.	.	.	.
8E-\J	.	.	8b-\J	.	8gg\J	.	.	.	.	8gg\J	.	.	.	.	.
!	!	!	!LO:LB:g=original	!	!	!	!	!	!	!	!	!	!	!	!
=95	=95	=95	=95	=95	=95	=95	=95	=95	=95	=95	=95	=95	=95	=95	=95
8D\L	6	.	8b-\L	.	8ff\L	.	2ryy	2ryy	2ryy	16ff\LL	.	2ryy	2ryy	2ryy	2ryy
.	.	.	.	.	.	.	.	.	.	16dd\JJ	.	.	.	.	.
8D\	.	.	8b-\	.	8ff\	.	.	.	.	32ee-\LLL	.	.	.	.	.
.	.	.	.	.	.	.	.	.	.	32dd\	.	.	.	.	.
.	.	.	.	.	.	.	.	.	.	32cc\	.	.	.	.	.
.	.	.	.	.	.	.	.	.	.	32dd\JJJ	.	.	.	.	.
8D\	.	.	8b-\	.	8ff\	.	.	.	.	8b-\L	.	.	.	.	.
8D\J	.	.	8b-\J	.	8ff\J	.	.	.	.	8ff\J	.	.	.	.	.
*	*	*	*	*	*Xtremolo	*	*	*	*	*	*	*	*	*	*
*Xtremolo	*	*	*Xtremolo	*	*	*	*	*	*	*	*	*	*	*	*
!	!	!	!	!	!	!	!	!	!	!LO:LB:g=original	!	!	!	!	!
=96	=96	=96	=96	=96	=96	=96	=96	=96	=96	=96	=96	=96	=96	=96	=96
4E-\	.	.	8b-\L	.	16gg\LL	.	2ryy	2ryy	2ryy	16gg\LL	.	2ryy	2ryy	2ryy	2ryy
.	.	.	.	.	16bb-\	.	.	.	.	16bb-\JJ	.	.	.	.	.
.	.	.	8cc\	.	16gg\	.	.	.	.	16gg\	-mi-	.	.	.	.
.	.	.	.	.	16ee-\JJ	.	.	.	.	16ee-\	-ne	.	.	.	.
!LO:TX:t=P:problem=mixed beam	!	!	!	!	!	!	!	!	!	!	!	!	!	!	!
8F\L	6 4	.	8b-\	.	8dd\L	.	.	.	.	8dd\	do-	.	.	.	.
8FF/J	5 3	.	8a\J	.	8cc\J	.	.	.	.	8cc\	-mi-	.	.	.	.
=97	=97	=97	=97	=97	=97	=97	=97	=97	=97	=97	=97	=97	=97	=97	=97
8BB-/	.	.	16b-\LL	.	16b-\LL	.	2ryy	2ryy	2ryy	16b-\	-ni	2ryy	2ryy	2ryy	2ryy
.	.	.	16gg\	.	16bb-\	.	.	.	.	16bb-\	in	.	.	.	.
8r	.	.	16ff\	.	16aa\	.	.	.	.	16aa\LL	no-	.	.	.	.
.	.	.	16ee-\JJ	.	16gg\JJ	.	.	.	.	16gg\JJ	.	.	.	.	.
4r	.	.	16dd\LL	.	16ff\LL	.	.	.	.	16ff\LL	.	.	.	.	.
.	.	.	16ee-\	.	16gg\	.	.	.	.	16gg\	.	.	.	.	.
.	.	.	16dd\	.	16ff\	.	.	.	.	16ff\	.	.	.	.	.
.	.	.	16cc\JJ	.	16ee-\JJ	.	.	.	.	16ee-\JJ	.	.	.	.	.
=98	=98	=98	=98	=98	=98	=98	=98	=98	=98	=98	=98	=98	=98	=98	=98
!LO:TX:t=P:problem=mixed beam	!	!	!	!	!	!	!	!	!	!	!	!	!	!	!
8BB-/L	.	.	8b-/L	.	16dd\LL	.	2ryy	2ryy	2ryy	16dd\LL	.	2ryy	2ryy	2ryy	2ryy
.	.	.	.	.	16ff\JJ	.	.	.	.	16ff\JJ	.	.	.	.	.
8E-\J	.	.	16g/L	.	32ff\LLL	.	.	.	.	32ff\LLL	-mi-	.	.	.	.
.	.	.	.	.	32ee-\	.	.	.	.	32ee-\JJJ	.	.	.	.	.
.	.	.	16e-/JJ	.	32dd\	.	.	.	.	32dd\LLL	-ne	.	.	.	.
.	.	.	.	.	32cc\JJJ	.	.	.	.	32cc\JJJ	.	.	.	.	.
!LO:TX:t=P:problem=mixed beam	!	!	!	!	!	!	!	!	!	!	!	!	!	!	!
8F\L	.	.	16e-/LL	.	16cc\LL	.	.	.	.	16cc\LL	do-	.	.	.	.
.	.	.	16d/	.	16b-\	.	.	.	.	16b-\JJ	.	.	.	.	.
8FF/J	.	.	16d/	.	16b-\	.	.	.	.	16b-\LL	-mi-	.	.	.	.
.	.	.	16c/JJ	.	16a\JJ	.	.	.	.	16a\JJ	.	.	.	.	.
=99	=99	=99	=99	=99	=99	=99	=99	=99	=99	=99	=99	=99	=99	=99	=99
!	!	!	!	!	!LO:TX:a:t=Tutti	!LO:DY:rj	!	!	!	!	!	!	!	!	!
8BB-/	.	.	8d/	.	8b-\L	f	2ryy	2ryy	2ryy	8b-\	-ni.	2ryy	2ryy	2ryy	2ryy
!LO:TX:a:i:t=T&colon;	!	!	!	!	!	!	!	!	!	!	!	!	!	!	!
8r	.	.	8r	.	(16ff\L	.	.	.	.	8r	.	.	.	.	.
.	.	.	.	.	16dd\JJ)	.	.	.	.	.	.	.	.	.	.
!	!	!	!LO:TX:a:i:t=Tutti	!LO:DY:t=for.	!	!	!	!	!	!	!	!	!	!	!
8r	.	.	4r	f	16b-\LL|	.	.	.	.	4r	.	.	.	.	.
.	.	.	.	.	16b-\|	.	.	.	.	.	.	.	.	.	.
8d\|	.	f	.	.	16b-\|	.	.	.	.	.	.	.	.	.	.
.	.	.	.	.	16b-\JJ|	.	.	.	.	.	.	.	.	.	.
!	!	!	!	!	!LO:LB:g=original	!	!	!	!	!	!	!	!	!	!
=100	=100	=100	=100	=100	=100	=100	=100	=100	=100	=100	=100	=100	=100	=100	=100
*	*	*	*tremolo	*	*	*	*	*	*	*	*	*	*	*	*
8c\L|	.	.	16f/LL	.	(16b-/LL	.	2ryy	2ryy	2ryy	0r	.	2ryy	2ryy	2ryy	2ryy
.	.	.	16f/	.	16a/	.	.	.	.	.	.	.	.	.	.
8A\|	.	.	16f/	.	16g/	.	.	.	.	.	.	.	.	.	.
.	.	.	16f/	.	16f/JJ)	.	.	.	.	.	.	.	.	.	.
8F\|	.	.	16f/	.	16ff\LL	.	.	.	.	.	.	.	.	.	.
.	.	.	16f/	.	16ee-\	.	.	.	.	.	.	.	.	.	.
8A\J|	.	.	16f/	.	16dd\	.	.	.	.	.	.	.	.	.	.
.	.	.	16f/JJ	.	16cc\JJ	.	.	.	.	.	.	.	.	.	.
=101	=101	=101	=101	=101	=101	=101	=101	=101	=101	=101	=101	=101	=101	=101	=101
8B-\|	.	.	8f/	.	8dd\L	.	2ryy	2ryy	2ryy	.	.	2ryy	2ryy	2ryy	2ryy
8r	.	.	8r	.	16ff\L	.	.	.	.	.	.	.	.	.	.
.	.	.	.	.	16dd\JJ	.	.	.	.	.	.	.	.	.	.
8r	.	.	4r	.	16b-\LL|	.	.	.	.	.	.	.	.	.	.
.	.	.	.	.	16b-\|	.	.	.	.	.	.	.	.	.	.
8d\|	.	.	.	.	16b-\|	.	.	.	.	.	.	.	.	.	.
.	.	.	.	.	16b-\JJ|	.	.	.	.	.	.	.	.	.	.
=102	=102	=102	=102	=102	=102	=102	=102	=102	=102	=102	=102	=102	=102	=102	=102
8c\L|	.	.	16f/LL	.	16b-/LL	.	2ryy	2ryy	2ryy	.	.	2ryy	2ryy	2ryy	2ryy
.	.	.	16f/	.	16a/	.	.	.	.	.	.	.	.	.	.
8A\|	.	.	16f/	.	16g/	.	.	.	.	.	.	.	.	.	.
.	.	.	16f/	.	16f/JJ	.	.	.	.	.	.	.	.	.	.
8F\|	.	.	16f/	.	16ff\LL	.	.	.	.	.	.	.	.	.	.
.	.	.	16f/	.	16ee-\	.	.	.	.	.	.	.	.	.	.
8A\J|	.	.	16f/	.	16dd\	.	.	.	.	.	.	.	.	.	.
.	.	.	16f/JJ	.	16cc\JJ	.	.	.	.	.	.	.	.	.	.
*	*	*	*Xtremolo	*	*	*	*	*	*	*	*	*	*	*	*
!LO:LB:g=original	!	!	!	!	!	!	!	!	!	!	!	!	!	!	!
=103	=103	=103	=103	=103	=103	=103	=103	=103	=103	=103	=103	=103	=103	=103	=103
8B-\	.	.	16b-\LL	.	16dd\LL	.	2ryy	2ryy	2ryy	.	.	2ryy	2ryy	2ryy	2ryy
.	.	.	16cc\	.	16ee-\	.	.	.	.	.	.	.	.	.	.
8r	.	.	16cc\	.	16ee-\	.	.	.	.	.	.	.	.	.	.
.	.	.	16dd\JJ	.	16ff\JJ	.	.	.	.	.	.	.	.	.	.
4r	.	.	16dd\LL	.	16ff\LL	.	.	.	.	.	.	.	.	.	.
.	.	.	16ee-\	.	16gg\	.	.	.	.	.	.	.	.	.	.
.	.	.	16ee-\	.	16gg\	.	.	.	.	.	.	.	.	.	.
.	.	.	16cc\JJ	.	16aa\JJ	.	.	.	.	.	.	.	.	.	.
=104	=104	=104	=104	=104	=104	=104	=104	=104	=104	=104	=104	=104	=104	=104	=104
8r	.	.	8dd\L	.	16bb-\LL	.	2ryy	2ryy	2ryy	0r	.	2ryy	2ryy	2ryy	2ryy
.	.	.	.	.	16ff\	.	.	.	.	.	.	.	.	.	.
8D\L	6_	.	8b-\	.	16ff\	.	.	.	.	.	.	.	.	.	.
.	.	.	.	.	16ff\JJ	.	.	.	.	.	.	.	.	.	.
8D\	.	.	8b-\	.	8ff\L	.	.	.	.	.	.	.	.	.	.
8D\J	5-	.	8b-\J	.	8aa-X\J	.	.	.	.	.	.	.	.	.	.
=105	=105	=105	=105	=105	=105	=105	=105	=105	=105	=105	=105	=105	=105	=105	=105
8r	.	.	8b-\L	.	(16ff#X\LL	.	2ryy	2ryy	2ryy	.	.	2ryy	2ryy	2ryy	2ryy
.	.	.	.	.	16gg\)	.	.	.	.	.	.	.	.	.	.
8E-\L	3	.	8b-\	.	16gg\|	.	.	.	.	.	.	.	.	.	.
.	.	.	.	.	16gg\JJ|	.	.	.	.	.	.	.	.	.	.
8E-\	.	.	8b-\	.	4gg\	.	.	.	.	.	.	.	.	.	.
8E-\J	.	.	8b-\J	.	.	.	.	.	.	.	.	.	.	.	.
!	!	!	!LO:LB:g=original	!	!	!	!	!	!	!	!	!	!	!	!
=106	=106	=106	=106	=106	=106	=106	=106	=106	=106	=106	=106	=106	=106	=106	=106
*	*	*	*tremolo	*	*	*	*	*	*	*	*	*	*	*	*
8D\L	6_ 3	.	8b-\L	.	(16ffn\LL	.	2ryy	2ryy	2ryy	.	.	2ryy	2ryy	2ryy	2ryy
.	.	.	.	.	16bb-\)	.	.	.	.	.	.	.	.	.	.
8E-\	_ 3	.	8b-\	.	(16gg\	.	.	.	.	.	.	.	.	.	.
.	.	.	.	.	16bb-\JJ)	.	.	.	.	.	.	.	.	.	.
8D\	_ 3	.	8b-\	.	(16ff\LL	.	.	.	.	.	.	.	.	.	.
.	.	.	.	.	16bb-\)	.	.	.	.	.	.	.	.	.	.
8E-\J	_ 3	.	8b-\J	.	(16gg\	.	.	.	.	.	.	.	.	.	.
.	.	.	.	.	16bb-\JJ)	.	.	.	.	.	.	.	.	.	.
*	*	*	*Xtremolo	*	*	*	*	*	*	*	*	*	*	*	*
=107	=107	=107	=107	=107	=107	=107	=107	=107	=107	=107	=107	=107	=107	=107	=107
!LO:TX:t=P:problem=mixed beam	!	!	!	!	!	!	!	!	!	!	!	!	!	!	!
8D\L	x	.	24b-\LL	.	24ff\LL	.	2ryy	2ryy	2ryy	.	.	2ryy	2ryy	2ryy	2ryy
.	.	.	24gg\	.	24bb-\	.	.	.	.	.	.	.	.	.	.
.	.	.	24ff\JJ	.	24aa\JJ	.	.	.	.	.	.	.	.	.	.
8E-\	6	.	24ee-\LL	.	24gg\LL	.	.	.	.	.	.	.	.	.	.
.	.	.	24dd\	.	24ff\	.	.	.	.	.	.	.	.	.	.
.	.	.	24cc\JJ	.	24ee-\JJ	.	.	.	.	.	.	.	.	.	.
8F\	6 4	.	8b-\L	.	8dd\L	.	.	.	.	.	.	.	.	.	.
8FF/J	5 3	.	8a\J	.	8cc\J	.	.	.	.	.	.	.	.	.	.
=108	=108	=108	=108	=108	=108	=108	=108	=108	=108	=108	=108	=108	=108	=108	=108
!LO:TX:t=P:problem=mixed beam	!	!	!	!	!	!	!	!	!	!LO:TX:b:i:t=Agnus ut Requiem\nda Capo.	!	!	!	!	!
16BB-/LL	.	.	8b-/L	.	8b-/L	.	2ryy	2ryy	2ryy	2r	.	2ryy	2ryy	2ryy	2ryy
16B-\	.	.	.	.	.	.	.	.	.	.	.	.	.	.	.
16F\	.	.	16f/L	.	8f/J	.	.	.	.	.	.	.	.	.	.
16D\JJ	.	.	16d/JJ	.	.	.	.	.	.	.	.	.	.	.	.
!	!	!	!	!	!LO:TX:b:i:t=Agnus ut Requiem da Capo.	!	!	!	!	!	!	!	!	!	!
8BB-/	.	.	8B-/	.	4B-/	.	.	.	.	.	.	.	.	.	.
!LO:TX:b:i:t=Agnus ut Requiem da Capo.	!	!	!LO:TX:b:i:t=Agnus ut Requiem da Capo.	!	!	!	!	!	!	!	!	!	!	!	!
8r	.	.	8r	.	.	.	.	.	.	.	.	.	.	.	.
==	==	==	==	==	==	==	==	==	==	==	==	==	==	==	==
*-	*-	*-	*-	*-	*-	*-	*-	*-	*-	*-	*-	*-	*-	*-	*-
!!!system-decoration: [(g1)][(g2)][(g3)][(g4)]s11
!!!ENC: Kamil Watkowski
!!!END: 2020-09-08
!!!EED: Andrzej Borzym
!!!EST: 2022-01-26
!!!RDF**kern: > = above
!!!RDF**kern: < = below
!!!RDF**dynam: p = pia:
!!!RDF**dynam: f = for
!!!RDF**kern: | = vertical stroke
